MODULE MainModule
VAR speeddata Work:= [100,20,5000,1000];
PERS tooldata custom_tool1 := [TRUE, [[-234.48,-412.72,208.37], [0.624338,0.331967,-0.624338,0.331967]], [18,[0.10,0.00,0.00],[1,0,0,0],0,0,0]];
PROC Main()
! 20260323_yaya_ABB_update widest printing bed.gh [T_ROB1]
! 24/03/2026 16:29:50
! Generated with TACO for ABB
! http://taco.blickfeld7.com
! =====================================
ConfL \Off;
ConfJ \Off;
MoveL [[1520.01,-24.73,-524.72],[0.032971,0.999448,0.003972,-0.00071],[0,-1,-1,0],[0,9E9,9E9,9E9,9E9,9E9]],Work,fine,custom_tool1\WObj:=WObj0;
MoveL [[1520.01,-24.73,-624.72],[0.032971,0.999448,0.003972,-0.00071],[0,-1,-1,0],[0,9E9,9E9,9E9,9E9,9E9]],Work,fine,custom_tool1\WObj:=WObj0;
WaitTime 1;
SetDo Local_IO_0_DO2,1;
WaitTime 1;
MoveL [[1520.01,-24.73,-624.72],[0.032971,0.999448,0.003972,-0.00071],[0,-1,-1,0],[0,9E9,9E9,9E9,9E9,9E9]],Work,z10,custom_tool1\WObj:=WObj0;
MoveL [[1520.18,-34.73,-624.73],[0.032971,0.999448,0.003972,-0.00071],[0,-1,-1,0],[0,9E9,9E9,9E9,9E9,9E9]],Work,z10,custom_tool1\WObj:=WObj0;
MoveL [[1520.34,-44.73,-624.74],[0.032971,0.999448,0.003972,-0.00071],[0,-1,-1,0],[0,9E9,9E9,9E9,9E9,9E9]],Work,z10,custom_tool1\WObj:=WObj0;
MoveL [[1520.51,-54.73,-624.76],[0.032971,0.999448,0.003972,-0.00071],[0,-1,-1,0],[0,9E9,9E9,9E9,9E9,9E9]],Work,z10,custom_tool1\WObj:=WObj0;
MoveL [[1520.67,-64.73,-624.77],[0.032971,0.999448,0.003972,-0.00071],[0,-1,-1,0],[0,9E9,9E9,9E9,9E9,9E9]],Work,z10,custom_tool1\WObj:=WObj0;
MoveL [[1520.84,-74.73,-624.79],[0.032971,0.999448,0.003972,-0.00071],[0,-1,-1,0],[0,9E9,9E9,9E9,9E9,9E9]],Work,z10,custom_tool1\WObj:=WObj0;
MoveL [[1521,-84.72,-624.8],[0.032971,0.999448,0.003972,-0.00071],[0,-1,-1,0],[0,9E9,9E9,9E9,9E9,9E9]],Work,z10,custom_tool1\WObj:=WObj0;
MoveL [[1521.17,-94.72,-624.81],[0.032971,0.999448,0.003972,-0.00071],[0,-1,-1,0],[0,9E9,9E9,9E9,9E9,9E9]],Work,z10,custom_tool1\WObj:=WObj0;
MoveL [[1521.33,-104.72,-624.83],[0.032971,0.999448,0.003972,-0.00071],[0,-1,-1,0],[0,9E9,9E9,9E9,9E9,9E9]],Work,z10,custom_tool1\WObj:=WObj0;
MoveL [[1521.5,-114.72,-624.84],[0.032971,0.999448,0.003972,-0.00071],[0,-1,-1,0],[0,9E9,9E9,9E9,9E9,9E9]],Work,z10,custom_tool1\WObj:=WObj0;
MoveL [[1521.66,-124.72,-624.86],[0.032971,0.999448,0.003972,-0.00071],[0,-1,-1,0],[0,9E9,9E9,9E9,9E9,9E9]],Work,z10,custom_tool1\WObj:=WObj0;
MoveL [[1512.75,-128.8,-624.84],[0.032971,0.999448,0.003972,-0.00071],[0,-1,-1,0],[0,9E9,9E9,9E9,9E9,9E9]],Work,z10,custom_tool1\WObj:=WObj0;
MoveL [[1505.52,-135.48,-624.84],[0.032971,0.999448,0.003972,-0.00071],[0,-1,-1,0],[0,9E9,9E9,9E9,9E9,9E9]],Work,z10,custom_tool1\WObj:=WObj0;
MoveL [[1500.73,-144.2,-624.84],[0.032971,0.999448,0.003972,-0.00071],[0,-1,-1,0],[0,9E9,9E9,9E9,9E9,9E9]],Work,z10,custom_tool1\WObj:=WObj0;
MoveL [[1499.12,-154.06,-624.85],[0.032971,0.999448,0.003972,-0.00071],[0,-1,-1,0],[0,9E9,9E9,9E9,9E9,9E9]],Work,z10,custom_tool1\WObj:=WObj0;
MoveL [[1499.27,-164.06,-624.87],[0.032971,0.999448,0.003972,-0.00071],[0,-1,-1,0],[0,9E9,9E9,9E9,9E9,9E9]],Work,z10,custom_tool1\WObj:=WObj0;
MoveL [[1499.44,-174.06,-624.88],[0.032971,0.999448,0.003972,-0.00071],[0,-1,-1,0],[0,9E9,9E9,9E9,9E9,9E9]],Work,z10,custom_tool1\WObj:=WObj0;
MoveL [[1499.6,-184.06,-624.89],[0.032971,0.999448,0.003972,-0.00071],[0,-1,-1,0],[0,9E9,9E9,9E9,9E9,9E9]],Work,z10,custom_tool1\WObj:=WObj0;
MoveL [[1499.77,-194.06,-624.91],[0.032971,0.999448,0.003972,-0.00071],[0,-1,-1,0],[0,9E9,9E9,9E9,9E9,9E9]],Work,z10,custom_tool1\WObj:=WObj0;
MoveL [[1499.93,-204.05,-624.92],[0.032971,0.999448,0.003972,-0.00071],[0,-1,-1,0],[0,9E9,9E9,9E9,9E9,9E9]],Work,z10,custom_tool1\WObj:=WObj0;
MoveL [[1500.1,-214.05,-624.93],[0.032971,0.999448,0.003972,-0.00071],[0,-1,-1,0],[0,9E9,9E9,9E9,9E9,9E9]],Work,z10,custom_tool1\WObj:=WObj0;
MoveL [[1500.26,-224.05,-624.95],[0.032971,0.999448,0.003972,-0.00071],[0,-1,-1,0],[0,9E9,9E9,9E9,9E9,9E9]],Work,z10,custom_tool1\WObj:=WObj0;
MoveL [[1500.42,-234.05,-624.96],[0.032971,0.999448,0.003972,-0.00071],[0,-1,-1,0],[0,9E9,9E9,9E9,9E9,9E9]],Work,z10,custom_tool1\WObj:=WObj0;
MoveL [[1500.59,-244.05,-624.98],[0.032971,0.999448,0.003972,-0.00071],[0,-1,-1,0],[0,9E9,9E9,9E9,9E9,9E9]],Work,z10,custom_tool1\WObj:=WObj0;
MoveL [[1500.75,-254.05,-624.99],[0.032971,0.999448,0.003972,-0.00071],[0,-1,-1,0],[0,9E9,9E9,9E9,9E9,9E9]],Work,z10,custom_tool1\WObj:=WObj0;
MoveL [[1500.92,-264.05,-625],[0.032971,0.999448,0.003972,-0.00071],[0,-1,-1,0],[0,9E9,9E9,9E9,9E9,9E9]],Work,z10,custom_tool1\WObj:=WObj0;
MoveL [[1501.08,-274.05,-625.02],[0.032971,0.999448,0.003972,-0.00071],[0,-1,-1,0],[0,9E9,9E9,9E9,9E9,9E9]],Work,z10,custom_tool1\WObj:=WObj0;
MoveL [[1501.25,-284.04,-625.03],[0.032971,0.999448,0.003972,-0.00071],[0,-1,-1,0],[0,9E9,9E9,9E9,9E9,9E9]],Work,z10,custom_tool1\WObj:=WObj0;
MoveL [[1501.41,-294.04,-625.05],[0.032971,0.999448,0.003972,-0.00071],[0,-1,-1,0],[0,9E9,9E9,9E9,9E9,9E9]],Work,z10,custom_tool1\WObj:=WObj0;
MoveL [[1501.58,-304.04,-625.06],[0.032971,0.999448,0.003972,-0.00071],[0,-1,-1,0],[0,9E9,9E9,9E9,9E9,9E9]],Work,z10,custom_tool1\WObj:=WObj0;
MoveL [[1501.74,-314.04,-625.07],[0.032971,0.999448,0.003972,-0.00071],[0,-1,-1,0],[0,9E9,9E9,9E9,9E9,9E9]],Work,z10,custom_tool1\WObj:=WObj0;
MoveL [[1501.91,-324.04,-625.09],[0.032971,0.999448,0.003972,-0.00071],[0,-1,-1,0],[0,9E9,9E9,9E9,9E9,9E9]],Work,z10,custom_tool1\WObj:=WObj0;
MoveL [[1502.07,-334.04,-625.1],[0.032971,0.999448,0.003972,-0.00071],[0,-1,-1,0],[0,9E9,9E9,9E9,9E9,9E9]],Work,z10,custom_tool1\WObj:=WObj0;
MoveL [[1502.24,-344.04,-625.12],[0.032971,0.999448,0.003972,-0.00071],[0,-1,-1,0],[0,9E9,9E9,9E9,9E9,9E9]],Work,z10,custom_tool1\WObj:=WObj0;
MoveL [[1502.4,-354.03,-625.13],[0.032971,0.999448,0.003972,-0.00071],[0,-1,-1,0],[0,9E9,9E9,9E9,9E9,9E9]],Work,z10,custom_tool1\WObj:=WObj0;
MoveL [[1502.57,-364.03,-625.14],[0.032971,0.999448,0.003972,-0.00071],[0,-1,-1,0],[0,9E9,9E9,9E9,9E9,9E9]],Work,z10,custom_tool1\WObj:=WObj0;
MoveL [[1502.73,-374.03,-625.16],[0.032971,0.999448,0.003972,-0.00071],[0,-1,-1,0],[0,9E9,9E9,9E9,9E9,9E9]],Work,z10,custom_tool1\WObj:=WObj0;
MoveL [[1503,-384.02,-625.17],[0.032971,0.999448,0.003972,-0.00071],[0,-1,-1,0],[0,9E9,9E9,9E9,9E9,9E9]],Work,z10,custom_tool1\WObj:=WObj0;
MoveL [[1505.08,-393.8,-625.19],[0.032971,0.999448,0.003972,-0.00071],[0,-1,-1,0],[0,9E9,9E9,9E9,9E9,9E9]],Work,z10,custom_tool1\WObj:=WObj0;
MoveL [[1510.34,-402.23,-625.21],[0.032971,0.999448,0.003972,-0.00071],[0,-1,-1,0],[0,9E9,9E9,9E9,9E9,9E9]],Work,z10,custom_tool1\WObj:=WObj0;
MoveL [[1517.95,-408.51,-625.23],[0.032971,0.999448,0.003972,-0.00071],[0,-1,-1,0],[0,9E9,9E9,9E9,9E9,9E9]],Work,z10,custom_tool1\WObj:=WObj0;
MoveL [[1527.08,-412.11,-625.26],[0.032971,0.999448,0.003972,-0.00071],[0,-1,-1,0],[0,9E9,9E9,9E9,9E9,9E9]],Work,z10,custom_tool1\WObj:=WObj0;
MoveL [[1537,-413.13,-625.28],[0.032971,0.999448,0.003972,-0.00071],[0,-1,-1,0],[0,9E9,9E9,9E9,9E9,9E9]],Work,z10,custom_tool1\WObj:=WObj0;
MoveL [[1547,-412.96,-625.3],[0.032971,0.999448,0.003972,-0.00071],[0,-1,-1,0],[0,9E9,9E9,9E9,9E9,9E9]],Work,z10,custom_tool1\WObj:=WObj0;
MoveL [[1557,-412.79,-625.32],[0.032971,0.999448,0.003972,-0.00071],[0,-1,-1,0],[0,9E9,9E9,9E9,9E9,9E9]],Work,z10,custom_tool1\WObj:=WObj0;
MoveL [[1567,-412.63,-625.34],[0.032971,0.999448,0.003972,-0.00071],[0,-1,-1,0],[0,9E9,9E9,9E9,9E9,9E9]],Work,z10,custom_tool1\WObj:=WObj0;
MoveL [[1577,-412.47,-625.36],[0.032971,0.999448,0.003972,-0.00071],[0,-1,-1,0],[0,9E9,9E9,9E9,9E9,9E9]],Work,z10,custom_tool1\WObj:=WObj0;
MoveL [[1586.99,-412.3,-625.38],[0.032971,0.999448,0.003972,-0.00071],[0,-1,-1,0],[0,9E9,9E9,9E9,9E9,9E9]],Work,z10,custom_tool1\WObj:=WObj0;
MoveL [[1596.97,-411.84,-625.4],[0.032971,0.999448,0.003972,-0.00071],[0,-1,-1,0],[0,9E9,9E9,9E9,9E9,9E9]],Work,z10,custom_tool1\WObj:=WObj0;
MoveL [[1606.72,-409.69,-625.41],[0.032971,0.999448,0.003972,-0.00071],[0,-1,-1,0],[0,9E9,9E9,9E9,9E9,9E9]],Work,z10,custom_tool1\WObj:=WObj0;
MoveL [[1614.94,-404,-625.42],[0.032971,0.999448,0.003972,-0.00071],[0,-1,-1,0],[0,9E9,9E9,9E9,9E9,9E9]],Work,z10,custom_tool1\WObj:=WObj0;
MoveL [[1620.85,-396.06,-625.42],[0.032971,0.999448,0.003972,-0.00071],[0,-1,-1,0],[0,9E9,9E9,9E9,9E9,9E9]],Work,z10,custom_tool1\WObj:=WObj0;
MoveL [[1624.01,-386.73,-625.42],[0.032971,0.999448,0.003972,-0.00071],[0,-1,-1,0],[0,9E9,9E9,9E9,9E9,9E9]],Work,z10,custom_tool1\WObj:=WObj0;
MoveL [[1624.79,-376.8,-625.4],[0.032971,0.999448,0.003972,-0.00071],[0,-1,-1,0],[0,9E9,9E9,9E9,9E9,9E9]],Work,z10,custom_tool1\WObj:=WObj0;
MoveL [[1624.63,-366.8,-625.39],[0.032971,0.999448,0.003972,-0.00071],[0,-1,-1,0],[0,9E9,9E9,9E9,9E9,9E9]],Work,z10,custom_tool1\WObj:=WObj0;
MoveL [[1624.46,-356.8,-625.38],[0.032971,0.999448,0.003972,-0.00071],[0,-1,-1,0],[0,9E9,9E9,9E9,9E9,9E9]],Work,z10,custom_tool1\WObj:=WObj0;
MoveL [[1624.3,-346.8,-625.36],[0.032971,0.999448,0.003972,-0.00071],[0,-1,-1,0],[0,9E9,9E9,9E9,9E9,9E9]],Work,z10,custom_tool1\WObj:=WObj0;
MoveL [[1624.14,-336.8,-625.35],[0.032971,0.999448,0.003972,-0.00071],[0,-1,-1,0],[0,9E9,9E9,9E9,9E9,9E9]],Work,z10,custom_tool1\WObj:=WObj0;
MoveL [[1623.97,-326.8,-625.33],[0.032971,0.999448,0.003972,-0.00071],[0,-1,-1,0],[0,9E9,9E9,9E9,9E9,9E9]],Work,z10,custom_tool1\WObj:=WObj0;
MoveL [[1623.81,-316.8,-625.32],[0.032971,0.999448,0.003972,-0.00071],[0,-1,-1,0],[0,9E9,9E9,9E9,9E9,9E9]],Work,z10,custom_tool1\WObj:=WObj0;
MoveL [[1623.64,-306.81,-625.31],[0.032971,0.999448,0.003972,-0.00071],[0,-1,-1,0],[0,9E9,9E9,9E9,9E9,9E9]],Work,z10,custom_tool1\WObj:=WObj0;
MoveL [[1623.48,-296.81,-625.29],[0.032971,0.999448,0.003972,-0.00071],[0,-1,-1,0],[0,9E9,9E9,9E9,9E9,9E9]],Work,z10,custom_tool1\WObj:=WObj0;
MoveL [[1623.31,-286.81,-625.28],[0.032971,0.999448,0.003972,-0.00071],[0,-1,-1,0],[0,9E9,9E9,9E9,9E9,9E9]],Work,z10,custom_tool1\WObj:=WObj0;
MoveL [[1623.15,-276.81,-625.27],[0.032971,0.999448,0.003972,-0.00071],[0,-1,-1,0],[0,9E9,9E9,9E9,9E9,9E9]],Work,z10,custom_tool1\WObj:=WObj0;
MoveL [[1622.98,-266.81,-625.25],[0.032971,0.999448,0.003972,-0.00071],[0,-1,-1,0],[0,9E9,9E9,9E9,9E9,9E9]],Work,z10,custom_tool1\WObj:=WObj0;
MoveL [[1622.82,-256.81,-625.24],[0.032971,0.999448,0.003972,-0.00071],[0,-1,-1,0],[0,9E9,9E9,9E9,9E9,9E9]],Work,z10,custom_tool1\WObj:=WObj0;
MoveL [[1622.65,-246.81,-625.22],[0.032971,0.999448,0.003972,-0.00071],[0,-1,-1,0],[0,9E9,9E9,9E9,9E9,9E9]],Work,z10,custom_tool1\WObj:=WObj0;
MoveL [[1622.49,-236.81,-625.21],[0.032971,0.999448,0.003972,-0.00071],[0,-1,-1,0],[0,9E9,9E9,9E9,9E9,9E9]],Work,z10,custom_tool1\WObj:=WObj0;
MoveL [[1622.32,-226.82,-625.2],[0.032971,0.999448,0.003972,-0.00071],[0,-1,-1,0],[0,9E9,9E9,9E9,9E9,9E9]],Work,z10,custom_tool1\WObj:=WObj0;
MoveL [[1622.16,-216.82,-625.18],[0.032971,0.999448,0.003972,-0.00071],[0,-1,-1,0],[0,9E9,9E9,9E9,9E9,9E9]],Work,z10,custom_tool1\WObj:=WObj0;
MoveL [[1621.99,-206.82,-625.17],[0.032971,0.999448,0.003972,-0.00071],[0,-1,-1,0],[0,9E9,9E9,9E9,9E9,9E9]],Work,z10,custom_tool1\WObj:=WObj0;
MoveL [[1621.83,-196.82,-625.15],[0.032971,0.999448,0.003972,-0.00071],[0,-1,-1,0],[0,9E9,9E9,9E9,9E9,9E9]],Work,z10,custom_tool1\WObj:=WObj0;
MoveL [[1621.66,-186.82,-625.14],[0.032971,0.999448,0.003972,-0.00071],[0,-1,-1,0],[0,9E9,9E9,9E9,9E9,9E9]],Work,z10,custom_tool1\WObj:=WObj0;
MoveL [[1621.5,-176.82,-625.13],[0.032971,0.999448,0.003972,-0.00071],[0,-1,-1,0],[0,9E9,9E9,9E9,9E9,9E9]],Work,z10,custom_tool1\WObj:=WObj0;
MoveL [[1621.33,-166.82,-625.11],[0.032971,0.999448,0.003972,-0.00071],[0,-1,-1,0],[0,9E9,9E9,9E9,9E9,9E9]],Work,z10,custom_tool1\WObj:=WObj0;
MoveL [[1621.17,-156.83,-625.1],[0.032971,0.999448,0.003972,-0.00071],[0,-1,-1,0],[0,9E9,9E9,9E9,9E9,9E9]],Work,z10,custom_tool1\WObj:=WObj0;
MoveL [[1620.06,-146.93,-625.08],[0.032971,0.999448,0.003972,-0.00071],[0,-1,-1,0],[0,9E9,9E9,9E9,9E9,9E9]],Work,z10,custom_tool1\WObj:=WObj0;
MoveL [[1616.76,-137.65,-625.06],[0.032971,0.999448,0.003972,-0.00071],[0,-1,-1,0],[0,9E9,9E9,9E9,9E9,9E9]],Work,z10,custom_tool1\WObj:=WObj0;
MoveL [[1610.67,-129.78,-625.04],[0.032971,0.999448,0.003972,-0.00071],[0,-1,-1,0],[0,9E9,9E9,9E9,9E9,9E9]],Work,z10,custom_tool1\WObj:=WObj0;
MoveL [[1602.22,-124.44,-625.02],[0.032971,0.999448,0.003972,-0.00071],[0,-1,-1,0],[0,9E9,9E9,9E9,9E9,9E9]],Work,z10,custom_tool1\WObj:=WObj0;
MoveL [[1592.43,-122.5,-624.99],[0.032971,0.999448,0.003972,-0.00071],[0,-1,-1,0],[0,9E9,9E9,9E9,9E9,9E9]],Work,z10,custom_tool1\WObj:=WObj0;
MoveL [[1582.45,-122.34,-624.97],[0.032971,0.999448,0.003972,-0.00071],[0,-1,-1,0],[0,9E9,9E9,9E9,9E9,9E9]],Work,z10,custom_tool1\WObj:=WObj0;
MoveL [[1572.45,-122.5,-624.95],[0.032971,0.999448,0.003972,-0.00071],[0,-1,-1,0],[0,9E9,9E9,9E9,9E9,9E9]],Work,z10,custom_tool1\WObj:=WObj0;
MoveL [[1562.45,-122.67,-624.93],[0.032971,0.999448,0.003972,-0.00071],[0,-1,-1,0],[0,9E9,9E9,9E9,9E9,9E9]],Work,z10,custom_tool1\WObj:=WObj0;
MoveL [[1552.45,-122.83,-624.92],[0.032971,0.999448,0.003972,-0.00071],[0,-1,-1,0],[0,9E9,9E9,9E9,9E9,9E9]],Work,z10,custom_tool1\WObj:=WObj0;
MoveL [[1542.45,-123,-624.9],[0.032971,0.999448,0.003972,-0.00071],[0,-1,-1,0],[0,9E9,9E9,9E9,9E9,9E9]],Work,z10,custom_tool1\WObj:=WObj0;
MoveL [[1532.45,-123.16,-624.88],[0.032971,0.999448,0.003972,-0.00071],[0,-1,-1,0],[0,9E9,9E9,9E9,9E9,9E9]],Work,z10,custom_tool1\WObj:=WObj0;
MoveL [[1522.58,-124.52,-624.86],[0.032971,0.999448,0.003972,-0.00071],[0,-1,-1,0],[0,9E9,9E9,9E9,9E9,9E9]],Work,z10,custom_tool1\WObj:=WObj0;
MoveL [[1531.38,-124.77,-624.88],[0.032971,0.999448,0.003972,-0.00071],[0,-1,-1,0],[0,9E9,9E9,9E9,9E9,9E9]],Work,z10,custom_tool1\WObj:=WObj0;
MoveL [[1540.19,-125.03,-624.89],[0.032971,0.999448,0.003972,-0.00071],[0,-1,-1,0],[0,9E9,9E9,9E9,9E9,9E9]],Work,z10,custom_tool1\WObj:=WObj0;
MoveL [[1530.41,-127.16,-624.88],[0.032971,0.999448,0.003972,-0.00071],[0,-1,-1,0],[0,9E9,9E9,9E9,9E9,9E9]],Work,z10,custom_tool1\WObj:=WObj0;
MoveL [[1520.64,-129.28,-624.86],[0.032971,0.999448,0.003972,-0.00071],[0,-1,-1,0],[0,9E9,9E9,9E9,9E9,9E9]],Work,z10,custom_tool1\WObj:=WObj0;
MoveL [[1507.39,-136.25,-624.84],[0.032971,0.999448,0.003972,-0.00071],[0,-1,-1,0],[0,9E9,9E9,9E9,9E9,9E9]],Work,z10,custom_tool1\WObj:=WObj0;
MoveL [[1517.17,-134.13,-624.86],[0.032971,0.999448,0.003972,-0.00071],[0,-1,-1,0],[0,9E9,9E9,9E9,9E9,9E9]],Work,z10,custom_tool1\WObj:=WObj0;
MoveL [[1526.94,-132,-624.88],[0.032971,0.999448,0.003972,-0.00071],[0,-1,-1,0],[0,9E9,9E9,9E9,9E9,9E9]],Work,z10,custom_tool1\WObj:=WObj0;
MoveL [[1536.71,-129.88,-624.89],[0.032971,0.999448,0.003972,-0.00071],[0,-1,-1,0],[0,9E9,9E9,9E9,9E9,9E9]],Work,z10,custom_tool1\WObj:=WObj0;
MoveL [[1546.48,-127.76,-624.91],[0.032971,0.999448,0.003972,-0.00071],[0,-1,-1,0],[0,9E9,9E9,9E9,9E9,9E9]],Work,z10,custom_tool1\WObj:=WObj0;
MoveL [[1556.25,-125.64,-624.93],[0.032971,0.999448,0.003972,-0.00071],[0,-1,-1,0],[0,9E9,9E9,9E9,9E9,9E9]],Work,z10,custom_tool1\WObj:=WObj0;
MoveL [[1568.61,-125,-624.95],[0.032971,0.999448,0.003972,-0.00071],[0,-1,-1,0],[0,9E9,9E9,9E9,9E9,9E9]],Work,z10,custom_tool1\WObj:=WObj0;
MoveL [[1580.97,-124.36,-624.97],[0.032971,0.999448,0.003972,-0.00071],[0,-1,-1,0],[0,9E9,9E9,9E9,9E9,9E9]],Work,z10,custom_tool1\WObj:=WObj0;
MoveL [[1571.2,-126.48,-624.96],[0.032971,0.999448,0.003972,-0.00071],[0,-1,-1,0],[0,9E9,9E9,9E9,9E9,9E9]],Work,z10,custom_tool1\WObj:=WObj0;
MoveL [[1561.43,-128.61,-624.94],[0.032971,0.999448,0.003972,-0.00071],[0,-1,-1,0],[0,9E9,9E9,9E9,9E9,9E9]],Work,z10,custom_tool1\WObj:=WObj0;
MoveL [[1551.66,-130.73,-624.92],[0.032971,0.999448,0.003972,-0.00071],[0,-1,-1,0],[0,9E9,9E9,9E9,9E9,9E9]],Work,z10,custom_tool1\WObj:=WObj0;
MoveL [[1541.88,-132.85,-624.91],[0.032971,0.999448,0.003972,-0.00071],[0,-1,-1,0],[0,9E9,9E9,9E9,9E9,9E9]],Work,z10,custom_tool1\WObj:=WObj0;
MoveL [[1532.11,-134.97,-624.89],[0.032971,0.999448,0.003972,-0.00071],[0,-1,-1,0],[0,9E9,9E9,9E9,9E9,9E9]],Work,z10,custom_tool1\WObj:=WObj0;
MoveL [[1522.34,-137.1,-624.87],[0.032971,0.999448,0.003972,-0.00071],[0,-1,-1,0],[0,9E9,9E9,9E9,9E9,9E9]],Work,z10,custom_tool1\WObj:=WObj0;
MoveL [[1512.57,-139.22,-624.86],[0.032971,0.999448,0.003972,-0.00071],[0,-1,-1,0],[0,9E9,9E9,9E9,9E9,9E9]],Work,z10,custom_tool1\WObj:=WObj0;
MoveL [[1502.5,-145.5,-624.85],[0.032971,0.999448,0.003972,-0.00071],[0,-1,-1,0],[0,9E9,9E9,9E9,9E9,9E9]],Work,z10,custom_tool1\WObj:=WObj0;
MoveL [[1512.28,-143.37,-624.86],[0.032971,0.999448,0.003972,-0.00071],[0,-1,-1,0],[0,9E9,9E9,9E9,9E9,9E9]],Work,z10,custom_tool1\WObj:=WObj0;
MoveL [[1522.05,-141.25,-624.88],[0.032971,0.999448,0.003972,-0.00071],[0,-1,-1,0],[0,9E9,9E9,9E9,9E9,9E9]],Work,z10,custom_tool1\WObj:=WObj0;
MoveL [[1531.82,-139.13,-624.9],[0.032971,0.999448,0.003972,-0.00071],[0,-1,-1,0],[0,9E9,9E9,9E9,9E9,9E9]],Work,z10,custom_tool1\WObj:=WObj0;
MoveL [[1541.59,-137.01,-624.91],[0.032971,0.999448,0.003972,-0.00071],[0,-1,-1,0],[0,9E9,9E9,9E9,9E9,9E9]],Work,z10,custom_tool1\WObj:=WObj0;
MoveL [[1551.37,-134.88,-624.93],[0.032971,0.999448,0.003972,-0.00071],[0,-1,-1,0],[0,9E9,9E9,9E9,9E9,9E9]],Work,z10,custom_tool1\WObj:=WObj0;
MoveL [[1561.14,-132.76,-624.95],[0.032971,0.999448,0.003972,-0.00071],[0,-1,-1,0],[0,9E9,9E9,9E9,9E9,9E9]],Work,z10,custom_tool1\WObj:=WObj0;
MoveL [[1570.91,-130.64,-624.96],[0.032971,0.999448,0.003972,-0.00071],[0,-1,-1,0],[0,9E9,9E9,9E9,9E9,9E9]],Work,z10,custom_tool1\WObj:=WObj0;
MoveL [[1580.68,-128.52,-624.98],[0.032971,0.999448,0.003972,-0.00071],[0,-1,-1,0],[0,9E9,9E9,9E9,9E9,9E9]],Work,z10,custom_tool1\WObj:=WObj0;
MoveL [[1590.45,-126.39,-625],[0.032971,0.999448,0.003972,-0.00071],[0,-1,-1,0],[0,9E9,9E9,9E9,9E9,9E9]],Work,z10,custom_tool1\WObj:=WObj0;
MoveL [[1603.48,-127.66,-625.02],[0.032971,0.999448,0.003972,-0.00071],[0,-1,-1,0],[0,9E9,9E9,9E9,9E9,9E9]],Work,z10,custom_tool1\WObj:=WObj0;
MoveL [[1593.71,-129.78,-625.01],[0.032971,0.999448,0.003972,-0.00071],[0,-1,-1,0],[0,9E9,9E9,9E9,9E9,9E9]],Work,z10,custom_tool1\WObj:=WObj0;
MoveL [[1583.94,-131.9,-624.99],[0.032971,0.999448,0.003972,-0.00071],[0,-1,-1,0],[0,9E9,9E9,9E9,9E9,9E9]],Work,z10,custom_tool1\WObj:=WObj0;
MoveL [[1574.16,-134.03,-624.97],[0.032971,0.999448,0.003972,-0.00071],[0,-1,-1,0],[0,9E9,9E9,9E9,9E9,9E9]],Work,z10,custom_tool1\WObj:=WObj0;
MoveL [[1564.39,-136.15,-624.96],[0.032971,0.999448,0.003972,-0.00071],[0,-1,-1,0],[0,9E9,9E9,9E9,9E9,9E9]],Work,z10,custom_tool1\WObj:=WObj0;
MoveL [[1554.62,-138.27,-624.94],[0.032971,0.999448,0.003972,-0.00071],[0,-1,-1,0],[0,9E9,9E9,9E9,9E9,9E9]],Work,z10,custom_tool1\WObj:=WObj0;
MoveL [[1544.85,-140.39,-624.92],[0.032971,0.999448,0.003972,-0.00071],[0,-1,-1,0],[0,9E9,9E9,9E9,9E9,9E9]],Work,z10,custom_tool1\WObj:=WObj0;
MoveL [[1535.08,-142.52,-624.91],[0.032971,0.999448,0.003972,-0.00071],[0,-1,-1,0],[0,9E9,9E9,9E9,9E9,9E9]],Work,z10,custom_tool1\WObj:=WObj0;
MoveL [[1525.3,-144.64,-624.89],[0.032971,0.999448,0.003972,-0.00071],[0,-1,-1,0],[0,9E9,9E9,9E9,9E9,9E9]],Work,z10,custom_tool1\WObj:=WObj0;
MoveL [[1515.53,-146.76,-624.87],[0.032971,0.999448,0.003972,-0.00071],[0,-1,-1,0],[0,9E9,9E9,9E9,9E9,9E9]],Work,z10,custom_tool1\WObj:=WObj0;
MoveL [[1505.76,-148.88,-624.86],[0.032971,0.999448,0.003972,-0.00071],[0,-1,-1,0],[0,9E9,9E9,9E9,9E9,9E9]],Work,z10,custom_tool1\WObj:=WObj0;
MoveL [[1501.14,-153.98,-624.86],[0.032971,0.999448,0.003972,-0.00071],[0,-1,-1,0],[0,9E9,9E9,9E9,9E9,9E9]],Work,z10,custom_tool1\WObj:=WObj0;
MoveL [[1510.91,-151.86,-624.87],[0.032971,0.999448,0.003972,-0.00071],[0,-1,-1,0],[0,9E9,9E9,9E9,9E9,9E9]],Work,z10,custom_tool1\WObj:=WObj0;
MoveL [[1520.68,-149.74,-624.89],[0.032971,0.999448,0.003972,-0.00071],[0,-1,-1,0],[0,9E9,9E9,9E9,9E9,9E9]],Work,z10,custom_tool1\WObj:=WObj0;
MoveL [[1530.45,-147.61,-624.9],[0.032971,0.999448,0.003972,-0.00071],[0,-1,-1,0],[0,9E9,9E9,9E9,9E9,9E9]],Work,z10,custom_tool1\WObj:=WObj0;
MoveL [[1540.23,-145.49,-624.92],[0.032971,0.999448,0.003972,-0.00071],[0,-1,-1,0],[0,9E9,9E9,9E9,9E9,9E9]],Work,z10,custom_tool1\WObj:=WObj0;
MoveL [[1550,-143.37,-624.94],[0.032971,0.999448,0.003972,-0.00071],[0,-1,-1,0],[0,9E9,9E9,9E9,9E9,9E9]],Work,z10,custom_tool1\WObj:=WObj0;
MoveL [[1559.77,-141.25,-624.95],[0.032971,0.999448,0.003972,-0.00071],[0,-1,-1,0],[0,9E9,9E9,9E9,9E9,9E9]],Work,z10,custom_tool1\WObj:=WObj0;
MoveL [[1569.54,-139.12,-624.97],[0.032971,0.999448,0.003972,-0.00071],[0,-1,-1,0],[0,9E9,9E9,9E9,9E9,9E9]],Work,z10,custom_tool1\WObj:=WObj0;
MoveL [[1579.31,-137,-624.99],[0.032971,0.999448,0.003972,-0.00071],[0,-1,-1,0],[0,9E9,9E9,9E9,9E9,9E9]],Work,z10,custom_tool1\WObj:=WObj0;
MoveL [[1589.09,-134.88,-625],[0.032971,0.999448,0.003972,-0.00071],[0,-1,-1,0],[0,9E9,9E9,9E9,9E9,9E9]],Work,z10,custom_tool1\WObj:=WObj0;
MoveL [[1598.86,-132.76,-625.02],[0.032971,0.999448,0.003972,-0.00071],[0,-1,-1,0],[0,9E9,9E9,9E9,9E9,9E9]],Work,z10,custom_tool1\WObj:=WObj0;
MoveL [[1611.82,-134.03,-625.05],[0.032971,0.999448,0.003972,-0.00071],[0,-1,-1,0],[0,9E9,9E9,9E9,9E9,9E9]],Work,z10,custom_tool1\WObj:=WObj0;
MoveL [[1602.05,-136.16,-625.03],[0.032971,0.999448,0.003972,-0.00071],[0,-1,-1,0],[0,9E9,9E9,9E9,9E9,9E9]],Work,z10,custom_tool1\WObj:=WObj0;
MoveL [[1592.28,-138.28,-625.02],[0.032971,0.999448,0.003972,-0.00071],[0,-1,-1,0],[0,9E9,9E9,9E9,9E9,9E9]],Work,z10,custom_tool1\WObj:=WObj0;
MoveL [[1582.51,-140.4,-625],[0.032971,0.999448,0.003972,-0.00071],[0,-1,-1,0],[0,9E9,9E9,9E9,9E9,9E9]],Work,z10,custom_tool1\WObj:=WObj0;
MoveL [[1572.73,-142.52,-624.98],[0.032971,0.999448,0.003972,-0.00071],[0,-1,-1,0],[0,9E9,9E9,9E9,9E9,9E9]],Work,z10,custom_tool1\WObj:=WObj0;
MoveL [[1562.96,-144.65,-624.97],[0.032971,0.999448,0.003972,-0.00071],[0,-1,-1,0],[0,9E9,9E9,9E9,9E9,9E9]],Work,z10,custom_tool1\WObj:=WObj0;
MoveL [[1553.19,-146.77,-624.95],[0.032971,0.999448,0.003972,-0.00071],[0,-1,-1,0],[0,9E9,9E9,9E9,9E9,9E9]],Work,z10,custom_tool1\WObj:=WObj0;
MoveL [[1543.42,-148.89,-624.93],[0.032971,0.999448,0.003972,-0.00071],[0,-1,-1,0],[0,9E9,9E9,9E9,9E9,9E9]],Work,z10,custom_tool1\WObj:=WObj0;
MoveL [[1533.64,-151.01,-624.92],[0.032971,0.999448,0.003972,-0.00071],[0,-1,-1,0],[0,9E9,9E9,9E9,9E9,9E9]],Work,z10,custom_tool1\WObj:=WObj0;
MoveL [[1523.87,-153.14,-624.9],[0.032971,0.999448,0.003972,-0.00071],[0,-1,-1,0],[0,9E9,9E9,9E9,9E9,9E9]],Work,z10,custom_tool1\WObj:=WObj0;
MoveL [[1514.1,-155.26,-624.88],[0.032971,0.999448,0.003972,-0.00071],[0,-1,-1,0],[0,9E9,9E9,9E9,9E9,9E9]],Work,z10,custom_tool1\WObj:=WObj0;
MoveL [[1504.33,-157.38,-624.87],[0.032971,0.999448,0.003972,-0.00071],[0,-1,-1,0],[0,9E9,9E9,9E9,9E9,9E9]],Work,z10,custom_tool1\WObj:=WObj0;
MoveL [[1501.24,-162.15,-624.87],[0.032971,0.999448,0.003972,-0.00071],[0,-1,-1,0],[0,9E9,9E9,9E9,9E9,9E9]],Work,z10,custom_tool1\WObj:=WObj0;
MoveL [[1511.01,-160.02,-624.88],[0.032971,0.999448,0.003972,-0.00071],[0,-1,-1,0],[0,9E9,9E9,9E9,9E9,9E9]],Work,z10,custom_tool1\WObj:=WObj0;
MoveL [[1520.78,-157.9,-624.9],[0.032971,0.999448,0.003972,-0.00071],[0,-1,-1,0],[0,9E9,9E9,9E9,9E9,9E9]],Work,z10,custom_tool1\WObj:=WObj0;
MoveL [[1530.56,-155.78,-624.92],[0.032971,0.999448,0.003972,-0.00071],[0,-1,-1,0],[0,9E9,9E9,9E9,9E9,9E9]],Work,z10,custom_tool1\WObj:=WObj0;
MoveL [[1540.33,-153.66,-624.93],[0.032971,0.999448,0.003972,-0.00071],[0,-1,-1,0],[0,9E9,9E9,9E9,9E9,9E9]],Work,z10,custom_tool1\WObj:=WObj0;
MoveL [[1550.1,-151.53,-624.95],[0.032971,0.999448,0.003972,-0.00071],[0,-1,-1,0],[0,9E9,9E9,9E9,9E9,9E9]],Work,z10,custom_tool1\WObj:=WObj0;
MoveL [[1559.87,-149.41,-624.97],[0.032971,0.999448,0.003972,-0.00071],[0,-1,-1,0],[0,9E9,9E9,9E9,9E9,9E9]],Work,z10,custom_tool1\WObj:=WObj0;
MoveL [[1569.64,-147.29,-624.98],[0.032971,0.999448,0.003972,-0.00071],[0,-1,-1,0],[0,9E9,9E9,9E9,9E9,9E9]],Work,z10,custom_tool1\WObj:=WObj0;
MoveL [[1579.42,-145.16,-625],[0.032971,0.999448,0.003972,-0.00071],[0,-1,-1,0],[0,9E9,9E9,9E9,9E9,9E9]],Work,z10,custom_tool1\WObj:=WObj0;
MoveL [[1589.19,-143.04,-625.02],[0.032971,0.999448,0.003972,-0.00071],[0,-1,-1,0],[0,9E9,9E9,9E9,9E9,9E9]],Work,z10,custom_tool1\WObj:=WObj0;
MoveL [[1598.96,-140.92,-625.03],[0.032971,0.999448,0.003972,-0.00071],[0,-1,-1,0],[0,9E9,9E9,9E9,9E9,9E9]],Work,z10,custom_tool1\WObj:=WObj0;
MoveL [[1608.73,-138.8,-625.05],[0.032971,0.999448,0.003972,-0.00071],[0,-1,-1,0],[0,9E9,9E9,9E9,9E9,9E9]],Work,z10,custom_tool1\WObj:=WObj0;
MoveL [[1616.69,-141.16,-625.07],[0.032971,0.999448,0.003972,-0.00071],[0,-1,-1,0],[0,9E9,9E9,9E9,9E9,9E9]],Work,z10,custom_tool1\WObj:=WObj0;
MoveL [[1606.92,-143.29,-625.05],[0.032971,0.999448,0.003972,-0.00071],[0,-1,-1,0],[0,9E9,9E9,9E9,9E9,9E9]],Work,z10,custom_tool1\WObj:=WObj0;
MoveL [[1597.14,-145.41,-625.03],[0.032971,0.999448,0.003972,-0.00071],[0,-1,-1,0],[0,9E9,9E9,9E9,9E9,9E9]],Work,z10,custom_tool1\WObj:=WObj0;
MoveL [[1587.37,-147.53,-625.02],[0.032971,0.999448,0.003972,-0.00071],[0,-1,-1,0],[0,9E9,9E9,9E9,9E9,9E9]],Work,z10,custom_tool1\WObj:=WObj0;
MoveL [[1577.6,-149.65,-625],[0.032971,0.999448,0.003972,-0.00071],[0,-1,-1,0],[0,9E9,9E9,9E9,9E9,9E9]],Work,z10,custom_tool1\WObj:=WObj0;
MoveL [[1567.83,-151.78,-624.98],[0.032971,0.999448,0.003972,-0.00071],[0,-1,-1,0],[0,9E9,9E9,9E9,9E9,9E9]],Work,z10,custom_tool1\WObj:=WObj0;
MoveL [[1558.06,-153.9,-624.97],[0.032971,0.999448,0.003972,-0.00071],[0,-1,-1,0],[0,9E9,9E9,9E9,9E9,9E9]],Work,z10,custom_tool1\WObj:=WObj0;
MoveL [[1548.28,-156.02,-624.95],[0.032971,0.999448,0.003972,-0.00071],[0,-1,-1,0],[0,9E9,9E9,9E9,9E9,9E9]],Work,z10,custom_tool1\WObj:=WObj0;
MoveL [[1538.51,-158.14,-624.94],[0.032971,0.999448,0.003972,-0.00071],[0,-1,-1,0],[0,9E9,9E9,9E9,9E9,9E9]],Work,z10,custom_tool1\WObj:=WObj0;
MoveL [[1528.74,-160.27,-624.92],[0.032971,0.999448,0.003972,-0.00071],[0,-1,-1,0],[0,9E9,9E9,9E9,9E9,9E9]],Work,z10,custom_tool1\WObj:=WObj0;
MoveL [[1518.97,-162.39,-624.9],[0.032971,0.999448,0.003972,-0.00071],[0,-1,-1,0],[0,9E9,9E9,9E9,9E9,9E9]],Work,z10,custom_tool1\WObj:=WObj0;
MoveL [[1509.19,-164.51,-624.89],[0.032971,0.999448,0.003972,-0.00071],[0,-1,-1,0],[0,9E9,9E9,9E9,9E9,9E9]],Work,z10,custom_tool1\WObj:=WObj0;
MoveL [[1501.37,-170.3,-624.88],[0.032971,0.999448,0.003972,-0.00071],[0,-1,-1,0],[0,9E9,9E9,9E9,9E9,9E9]],Work,z10,custom_tool1\WObj:=WObj0;
MoveL [[1511.15,-168.18,-624.89],[0.032971,0.999448,0.003972,-0.00071],[0,-1,-1,0],[0,9E9,9E9,9E9,9E9,9E9]],Work,z10,custom_tool1\WObj:=WObj0;
MoveL [[1520.92,-166.06,-624.91],[0.032971,0.999448,0.003972,-0.00071],[0,-1,-1,0],[0,9E9,9E9,9E9,9E9,9E9]],Work,z10,custom_tool1\WObj:=WObj0;
MoveL [[1530.69,-163.93,-624.93],[0.032971,0.999448,0.003972,-0.00071],[0,-1,-1,0],[0,9E9,9E9,9E9,9E9,9E9]],Work,z10,custom_tool1\WObj:=WObj0;
MoveL [[1540.46,-161.81,-624.94],[0.032971,0.999448,0.003972,-0.00071],[0,-1,-1,0],[0,9E9,9E9,9E9,9E9,9E9]],Work,z10,custom_tool1\WObj:=WObj0;
MoveL [[1550.23,-159.69,-624.96],[0.032971,0.999448,0.003972,-0.00071],[0,-1,-1,0],[0,9E9,9E9,9E9,9E9,9E9]],Work,z10,custom_tool1\WObj:=WObj0;
MoveL [[1560.01,-157.57,-624.98],[0.032971,0.999448,0.003972,-0.00071],[0,-1,-1,0],[0,9E9,9E9,9E9,9E9,9E9]],Work,z10,custom_tool1\WObj:=WObj0;
MoveL [[1569.78,-155.44,-624.99],[0.032971,0.999448,0.003972,-0.00071],[0,-1,-1,0],[0,9E9,9E9,9E9,9E9,9E9]],Work,z10,custom_tool1\WObj:=WObj0;
MoveL [[1579.55,-153.32,-625.01],[0.032971,0.999448,0.003972,-0.00071],[0,-1,-1,0],[0,9E9,9E9,9E9,9E9,9E9]],Work,z10,custom_tool1\WObj:=WObj0;
MoveL [[1589.32,-151.2,-625.03],[0.032971,0.999448,0.003972,-0.00071],[0,-1,-1,0],[0,9E9,9E9,9E9,9E9,9E9]],Work,z10,custom_tool1\WObj:=WObj0;
MoveL [[1599.1,-149.08,-625.04],[0.032971,0.999448,0.003972,-0.00071],[0,-1,-1,0],[0,9E9,9E9,9E9,9E9,9E9]],Work,z10,custom_tool1\WObj:=WObj0;
MoveL [[1608.87,-146.95,-625.06],[0.032971,0.999448,0.003972,-0.00071],[0,-1,-1,0],[0,9E9,9E9,9E9,9E9,9E9]],Work,z10,custom_tool1\WObj:=WObj0;
MoveL [[1618.45,-148.97,-625.08],[0.032971,0.999448,0.003972,-0.00071],[0,-1,-1,0],[0,9E9,9E9,9E9,9E9,9E9]],Work,z10,custom_tool1\WObj:=WObj0;
MoveL [[1608.68,-151.09,-625.07],[0.032971,0.999448,0.003972,-0.00071],[0,-1,-1,0],[0,9E9,9E9,9E9,9E9,9E9]],Work,z10,custom_tool1\WObj:=WObj0;
MoveL [[1598.91,-153.21,-625.05],[0.032971,0.999448,0.003972,-0.00071],[0,-1,-1,0],[0,9E9,9E9,9E9,9E9,9E9]],Work,z10,custom_tool1\WObj:=WObj0;
MoveL [[1589.14,-155.33,-625.03],[0.032971,0.999448,0.003972,-0.00071],[0,-1,-1,0],[0,9E9,9E9,9E9,9E9,9E9]],Work,z10,custom_tool1\WObj:=WObj0;
MoveL [[1579.37,-157.46,-625.02],[0.032971,0.999448,0.003972,-0.00071],[0,-1,-1,0],[0,9E9,9E9,9E9,9E9,9E9]],Work,z10,custom_tool1\WObj:=WObj0;
MoveL [[1569.59,-159.58,-625],[0.032971,0.999448,0.003972,-0.00071],[0,-1,-1,0],[0,9E9,9E9,9E9,9E9,9E9]],Work,z10,custom_tool1\WObj:=WObj0;
MoveL [[1559.82,-161.7,-624.98],[0.032971,0.999448,0.003972,-0.00071],[0,-1,-1,0],[0,9E9,9E9,9E9,9E9,9E9]],Work,z10,custom_tool1\WObj:=WObj0;
MoveL [[1550.05,-163.82,-624.97],[0.032971,0.999448,0.003972,-0.00071],[0,-1,-1,0],[0,9E9,9E9,9E9,9E9,9E9]],Work,z10,custom_tool1\WObj:=WObj0;
MoveL [[1540.28,-165.95,-624.95],[0.032971,0.999448,0.003972,-0.00071],[0,-1,-1,0],[0,9E9,9E9,9E9,9E9,9E9]],Work,z10,custom_tool1\WObj:=WObj0;
MoveL [[1530.51,-168.07,-624.93],[0.032971,0.999448,0.003972,-0.00071],[0,-1,-1,0],[0,9E9,9E9,9E9,9E9,9E9]],Work,z10,custom_tool1\WObj:=WObj0;
MoveL [[1520.73,-170.19,-624.92],[0.032971,0.999448,0.003972,-0.00071],[0,-1,-1,0],[0,9E9,9E9,9E9,9E9,9E9]],Work,z10,custom_tool1\WObj:=WObj0;
MoveL [[1510.96,-172.31,-624.9],[0.032971,0.999448,0.003972,-0.00071],[0,-1,-1,0],[0,9E9,9E9,9E9,9E9,9E9]],Work,z10,custom_tool1\WObj:=WObj0;
MoveL [[1501.51,-178.46,-624.89],[0.032971,0.999448,0.003972,-0.00071],[0,-1,-1,0],[0,9E9,9E9,9E9,9E9,9E9]],Work,z10,custom_tool1\WObj:=WObj0;
MoveL [[1511.28,-176.34,-624.91],[0.032971,0.999448,0.003972,-0.00071],[0,-1,-1,0],[0,9E9,9E9,9E9,9E9,9E9]],Work,z10,custom_tool1\WObj:=WObj0;
MoveL [[1521.05,-174.21,-624.92],[0.032971,0.999448,0.003972,-0.00071],[0,-1,-1,0],[0,9E9,9E9,9E9,9E9,9E9]],Work,z10,custom_tool1\WObj:=WObj0;
MoveL [[1530.82,-172.09,-624.94],[0.032971,0.999448,0.003972,-0.00071],[0,-1,-1,0],[0,9E9,9E9,9E9,9E9,9E9]],Work,z10,custom_tool1\WObj:=WObj0;
MoveL [[1540.6,-169.97,-624.96],[0.032971,0.999448,0.003972,-0.00071],[0,-1,-1,0],[0,9E9,9E9,9E9,9E9,9E9]],Work,z10,custom_tool1\WObj:=WObj0;
MoveL [[1550.37,-167.85,-624.97],[0.032971,0.999448,0.003972,-0.00071],[0,-1,-1,0],[0,9E9,9E9,9E9,9E9,9E9]],Work,z10,custom_tool1\WObj:=WObj0;
MoveL [[1560.14,-165.72,-624.99],[0.032971,0.999448,0.003972,-0.00071],[0,-1,-1,0],[0,9E9,9E9,9E9,9E9,9E9]],Work,z10,custom_tool1\WObj:=WObj0;
MoveL [[1569.91,-163.6,-625.01],[0.032971,0.999448,0.003972,-0.00071],[0,-1,-1,0],[0,9E9,9E9,9E9,9E9,9E9]],Work,z10,custom_tool1\WObj:=WObj0;
MoveL [[1579.69,-161.48,-625.02],[0.032971,0.999448,0.003972,-0.00071],[0,-1,-1,0],[0,9E9,9E9,9E9,9E9,9E9]],Work,z10,custom_tool1\WObj:=WObj0;
MoveL [[1589.46,-159.36,-625.04],[0.032971,0.999448,0.003972,-0.00071],[0,-1,-1,0],[0,9E9,9E9,9E9,9E9,9E9]],Work,z10,custom_tool1\WObj:=WObj0;
MoveL [[1599.23,-157.23,-625.05],[0.032971,0.999448,0.003972,-0.00071],[0,-1,-1,0],[0,9E9,9E9,9E9,9E9,9E9]],Work,z10,custom_tool1\WObj:=WObj0;
MoveL [[1609,-155.11,-625.07],[0.032971,0.999448,0.003972,-0.00071],[0,-1,-1,0],[0,9E9,9E9,9E9,9E9,9E9]],Work,z10,custom_tool1\WObj:=WObj0;
MoveL [[1618.77,-152.99,-625.09],[0.032971,0.999448,0.003972,-0.00071],[0,-1,-1,0],[0,9E9,9E9,9E9,9E9,9E9]],Work,z10,custom_tool1\WObj:=WObj0;
MoveL [[1619.17,-157,-625.09],[0.032971,0.999448,0.003972,-0.00071],[0,-1,-1,0],[0,9E9,9E9,9E9,9E9,9E9]],Work,z10,custom_tool1\WObj:=WObj0;
MoveL [[1609.4,-159.12,-625.08],[0.032971,0.999448,0.003972,-0.00071],[0,-1,-1,0],[0,9E9,9E9,9E9,9E9,9E9]],Work,z10,custom_tool1\WObj:=WObj0;
MoveL [[1599.62,-161.24,-625.06],[0.032971,0.999448,0.003972,-0.00071],[0,-1,-1,0],[0,9E9,9E9,9E9,9E9,9E9]],Work,z10,custom_tool1\WObj:=WObj0;
MoveL [[1589.85,-163.36,-625.04],[0.032971,0.999448,0.003972,-0.00071],[0,-1,-1,0],[0,9E9,9E9,9E9,9E9,9E9]],Work,z10,custom_tool1\WObj:=WObj0;
MoveL [[1580.08,-165.49,-625.03],[0.032971,0.999448,0.003972,-0.00071],[0,-1,-1,0],[0,9E9,9E9,9E9,9E9,9E9]],Work,z10,custom_tool1\WObj:=WObj0;
MoveL [[1570.31,-167.61,-625.01],[0.032971,0.999448,0.003972,-0.00071],[0,-1,-1,0],[0,9E9,9E9,9E9,9E9,9E9]],Work,z10,custom_tool1\WObj:=WObj0;
MoveL [[1560.54,-169.73,-624.99],[0.032971,0.999448,0.003972,-0.00071],[0,-1,-1,0],[0,9E9,9E9,9E9,9E9,9E9]],Work,z10,custom_tool1\WObj:=WObj0;
MoveL [[1550.76,-171.85,-624.98],[0.032971,0.999448,0.003972,-0.00071],[0,-1,-1,0],[0,9E9,9E9,9E9,9E9,9E9]],Work,z10,custom_tool1\WObj:=WObj0;
MoveL [[1540.99,-173.98,-624.96],[0.032971,0.999448,0.003972,-0.00071],[0,-1,-1,0],[0,9E9,9E9,9E9,9E9,9E9]],Work,z10,custom_tool1\WObj:=WObj0;
MoveL [[1531.22,-176.1,-624.95],[0.032971,0.999448,0.003972,-0.00071],[0,-1,-1,0],[0,9E9,9E9,9E9,9E9,9E9]],Work,z10,custom_tool1\WObj:=WObj0;
MoveL [[1521.45,-178.22,-624.93],[0.032971,0.999448,0.003972,-0.00071],[0,-1,-1,0],[0,9E9,9E9,9E9,9E9,9E9]],Work,z10,custom_tool1\WObj:=WObj0;
MoveL [[1511.68,-180.34,-624.91],[0.032971,0.999448,0.003972,-0.00071],[0,-1,-1,0],[0,9E9,9E9,9E9,9E9,9E9]],Work,z10,custom_tool1\WObj:=WObj0;
MoveL [[1501.9,-182.47,-624.9],[0.032971,0.999448,0.003972,-0.00071],[0,-1,-1,0],[0,9E9,9E9,9E9,9E9,9E9]],Work,z10,custom_tool1\WObj:=WObj0;
MoveL [[1501.64,-186.62,-624.9],[0.032971,0.999448,0.003972,-0.00071],[0,-1,-1,0],[0,9E9,9E9,9E9,9E9,9E9]],Work,z10,custom_tool1\WObj:=WObj0;
MoveL [[1511.42,-184.49,-624.92],[0.032971,0.999448,0.003972,-0.00071],[0,-1,-1,0],[0,9E9,9E9,9E9,9E9,9E9]],Work,z10,custom_tool1\WObj:=WObj0;
MoveL [[1521.19,-182.37,-624.93],[0.032971,0.999448,0.003972,-0.00071],[0,-1,-1,0],[0,9E9,9E9,9E9,9E9,9E9]],Work,z10,custom_tool1\WObj:=WObj0;
MoveL [[1530.96,-180.25,-624.95],[0.032971,0.999448,0.003972,-0.00071],[0,-1,-1,0],[0,9E9,9E9,9E9,9E9,9E9]],Work,z10,custom_tool1\WObj:=WObj0;
MoveL [[1540.73,-178.13,-624.97],[0.032971,0.999448,0.003972,-0.00071],[0,-1,-1,0],[0,9E9,9E9,9E9,9E9,9E9]],Work,z10,custom_tool1\WObj:=WObj0;
MoveL [[1550.5,-176,-624.98],[0.032971,0.999448,0.003972,-0.00071],[0,-1,-1,0],[0,9E9,9E9,9E9,9E9,9E9]],Work,z10,custom_tool1\WObj:=WObj0;
MoveL [[1560.28,-173.88,-625],[0.032971,0.999448,0.003972,-0.00071],[0,-1,-1,0],[0,9E9,9E9,9E9,9E9,9E9]],Work,z10,custom_tool1\WObj:=WObj0;
MoveL [[1570.05,-171.76,-625.02],[0.032971,0.999448,0.003972,-0.00071],[0,-1,-1,0],[0,9E9,9E9,9E9,9E9,9E9]],Work,z10,custom_tool1\WObj:=WObj0;
MoveL [[1579.82,-169.64,-625.03],[0.032971,0.999448,0.003972,-0.00071],[0,-1,-1,0],[0,9E9,9E9,9E9,9E9,9E9]],Work,z10,custom_tool1\WObj:=WObj0;
MoveL [[1589.59,-167.51,-625.05],[0.032971,0.999448,0.003972,-0.00071],[0,-1,-1,0],[0,9E9,9E9,9E9,9E9,9E9]],Work,z10,custom_tool1\WObj:=WObj0;
MoveL [[1599.36,-165.39,-625.07],[0.032971,0.999448,0.003972,-0.00071],[0,-1,-1,0],[0,9E9,9E9,9E9,9E9,9E9]],Work,z10,custom_tool1\WObj:=WObj0;
MoveL [[1609.14,-163.27,-625.08],[0.032971,0.999448,0.003972,-0.00071],[0,-1,-1,0],[0,9E9,9E9,9E9,9E9,9E9]],Work,z10,custom_tool1\WObj:=WObj0;
MoveL [[1618.91,-161.15,-625.1],[0.032971,0.999448,0.003972,-0.00071],[0,-1,-1,0],[0,9E9,9E9,9E9,9E9,9E9]],Work,z10,custom_tool1\WObj:=WObj0;
MoveL [[1619.3,-165.15,-625.11],[0.032971,0.999448,0.003972,-0.00071],[0,-1,-1,0],[0,9E9,9E9,9E9,9E9,9E9]],Work,z10,custom_tool1\WObj:=WObj0;
MoveL [[1609.53,-167.28,-625.09],[0.032971,0.999448,0.003972,-0.00071],[0,-1,-1,0],[0,9E9,9E9,9E9,9E9,9E9]],Work,z10,custom_tool1\WObj:=WObj0;
MoveL [[1599.76,-169.4,-625.07],[0.032971,0.999448,0.003972,-0.00071],[0,-1,-1,0],[0,9E9,9E9,9E9,9E9,9E9]],Work,z10,custom_tool1\WObj:=WObj0;
MoveL [[1589.99,-171.52,-625.06],[0.032971,0.999448,0.003972,-0.00071],[0,-1,-1,0],[0,9E9,9E9,9E9,9E9,9E9]],Work,z10,custom_tool1\WObj:=WObj0;
MoveL [[1580.22,-173.64,-625.04],[0.032971,0.999448,0.003972,-0.00071],[0,-1,-1,0],[0,9E9,9E9,9E9,9E9,9E9]],Work,z10,custom_tool1\WObj:=WObj0;
MoveL [[1570.44,-175.77,-625.02],[0.032971,0.999448,0.003972,-0.00071],[0,-1,-1,0],[0,9E9,9E9,9E9,9E9,9E9]],Work,z10,custom_tool1\WObj:=WObj0;
MoveL [[1560.67,-177.89,-625.01],[0.032971,0.999448,0.003972,-0.00071],[0,-1,-1,0],[0,9E9,9E9,9E9,9E9,9E9]],Work,z10,custom_tool1\WObj:=WObj0;
MoveL [[1550.9,-180.01,-624.99],[0.032971,0.999448,0.003972,-0.00071],[0,-1,-1,0],[0,9E9,9E9,9E9,9E9,9E9]],Work,z10,custom_tool1\WObj:=WObj0;
MoveL [[1541.13,-182.13,-624.97],[0.032971,0.999448,0.003972,-0.00071],[0,-1,-1,0],[0,9E9,9E9,9E9,9E9,9E9]],Work,z10,custom_tool1\WObj:=WObj0;
MoveL [[1531.36,-184.26,-624.96],[0.032971,0.999448,0.003972,-0.00071],[0,-1,-1,0],[0,9E9,9E9,9E9,9E9,9E9]],Work,z10,custom_tool1\WObj:=WObj0;
MoveL [[1521.58,-186.38,-624.94],[0.032971,0.999448,0.003972,-0.00071],[0,-1,-1,0],[0,9E9,9E9,9E9,9E9,9E9]],Work,z10,custom_tool1\WObj:=WObj0;
MoveL [[1511.81,-188.5,-624.92],[0.032971,0.999448,0.003972,-0.00071],[0,-1,-1,0],[0,9E9,9E9,9E9,9E9,9E9]],Work,z10,custom_tool1\WObj:=WObj0;
MoveL [[1502.04,-190.62,-624.91],[0.032971,0.999448,0.003972,-0.00071],[0,-1,-1,0],[0,9E9,9E9,9E9,9E9,9E9]],Work,z10,custom_tool1\WObj:=WObj0;
MoveL [[1501.78,-194.77,-624.91],[0.032971,0.999448,0.003972,-0.00071],[0,-1,-1,0],[0,9E9,9E9,9E9,9E9,9E9]],Work,z10,custom_tool1\WObj:=WObj0;
MoveL [[1511.55,-192.65,-624.93],[0.032971,0.999448,0.003972,-0.00071],[0,-1,-1,0],[0,9E9,9E9,9E9,9E9,9E9]],Work,z10,custom_tool1\WObj:=WObj0;
MoveL [[1521.32,-190.53,-624.94],[0.032971,0.999448,0.003972,-0.00071],[0,-1,-1,0],[0,9E9,9E9,9E9,9E9,9E9]],Work,z10,custom_tool1\WObj:=WObj0;
MoveL [[1531.09,-188.41,-624.96],[0.032971,0.999448,0.003972,-0.00071],[0,-1,-1,0],[0,9E9,9E9,9E9,9E9,9E9]],Work,z10,custom_tool1\WObj:=WObj0;
MoveL [[1540.87,-186.28,-624.98],[0.032971,0.999448,0.003972,-0.00071],[0,-1,-1,0],[0,9E9,9E9,9E9,9E9,9E9]],Work,z10,custom_tool1\WObj:=WObj0;
MoveL [[1550.64,-184.16,-624.99],[0.032971,0.999448,0.003972,-0.00071],[0,-1,-1,0],[0,9E9,9E9,9E9,9E9,9E9]],Work,z10,custom_tool1\WObj:=WObj0;
MoveL [[1560.41,-182.04,-625.01],[0.032971,0.999448,0.003972,-0.00071],[0,-1,-1,0],[0,9E9,9E9,9E9,9E9,9E9]],Work,z10,custom_tool1\WObj:=WObj0;
MoveL [[1570.18,-179.92,-625.03],[0.032971,0.999448,0.003972,-0.00071],[0,-1,-1,0],[0,9E9,9E9,9E9,9E9,9E9]],Work,z10,custom_tool1\WObj:=WObj0;
MoveL [[1579.95,-177.79,-625.04],[0.032971,0.999448,0.003972,-0.00071],[0,-1,-1,0],[0,9E9,9E9,9E9,9E9,9E9]],Work,z10,custom_tool1\WObj:=WObj0;
MoveL [[1589.73,-175.67,-625.06],[0.032971,0.999448,0.003972,-0.00071],[0,-1,-1,0],[0,9E9,9E9,9E9,9E9,9E9]],Work,z10,custom_tool1\WObj:=WObj0;
MoveL [[1599.5,-173.55,-625.08],[0.032971,0.999448,0.003972,-0.00071],[0,-1,-1,0],[0,9E9,9E9,9E9,9E9,9E9]],Work,z10,custom_tool1\WObj:=WObj0;
MoveL [[1609.27,-171.43,-625.09],[0.032971,0.999448,0.003972,-0.00071],[0,-1,-1,0],[0,9E9,9E9,9E9,9E9,9E9]],Work,z10,custom_tool1\WObj:=WObj0;
MoveL [[1619.04,-169.3,-625.11],[0.032971,0.999448,0.003972,-0.00071],[0,-1,-1,0],[0,9E9,9E9,9E9,9E9,9E9]],Work,z10,custom_tool1\WObj:=WObj0;
MoveL [[1619.44,-173.31,-625.12],[0.032971,0.999448,0.003972,-0.00071],[0,-1,-1,0],[0,9E9,9E9,9E9,9E9,9E9]],Work,z10,custom_tool1\WObj:=WObj0;
MoveL [[1609.67,-175.43,-625.1],[0.032971,0.999448,0.003972,-0.00071],[0,-1,-1,0],[0,9E9,9E9,9E9,9E9,9E9]],Work,z10,custom_tool1\WObj:=WObj0;
MoveL [[1599.9,-177.56,-625.08],[0.032971,0.999448,0.003972,-0.00071],[0,-1,-1,0],[0,9E9,9E9,9E9,9E9,9E9]],Work,z10,custom_tool1\WObj:=WObj0;
MoveL [[1590.12,-179.68,-625.07],[0.032971,0.999448,0.003972,-0.00071],[0,-1,-1,0],[0,9E9,9E9,9E9,9E9,9E9]],Work,z10,custom_tool1\WObj:=WObj0;
MoveL [[1580.35,-181.8,-625.05],[0.032971,0.999448,0.003972,-0.00071],[0,-1,-1,0],[0,9E9,9E9,9E9,9E9,9E9]],Work,z10,custom_tool1\WObj:=WObj0;
MoveL [[1570.58,-183.92,-625.03],[0.032971,0.999448,0.003972,-0.00071],[0,-1,-1,0],[0,9E9,9E9,9E9,9E9,9E9]],Work,z10,custom_tool1\WObj:=WObj0;
MoveL [[1560.81,-186.05,-625.02],[0.032971,0.999448,0.003972,-0.00071],[0,-1,-1,0],[0,9E9,9E9,9E9,9E9,9E9]],Work,z10,custom_tool1\WObj:=WObj0;
MoveL [[1551.03,-188.17,-625],[0.032971,0.999448,0.003972,-0.00071],[0,-1,-1,0],[0,9E9,9E9,9E9,9E9,9E9]],Work,z10,custom_tool1\WObj:=WObj0;
MoveL [[1541.26,-190.29,-624.98],[0.032971,0.999448,0.003972,-0.00071],[0,-1,-1,0],[0,9E9,9E9,9E9,9E9,9E9]],Work,z10,custom_tool1\WObj:=WObj0;
MoveL [[1531.49,-192.41,-624.97],[0.032971,0.999448,0.003972,-0.00071],[0,-1,-1,0],[0,9E9,9E9,9E9,9E9,9E9]],Work,z10,custom_tool1\WObj:=WObj0;
MoveL [[1521.72,-194.54,-624.95],[0.032971,0.999448,0.003972,-0.00071],[0,-1,-1,0],[0,9E9,9E9,9E9,9E9,9E9]],Work,z10,custom_tool1\WObj:=WObj0;
MoveL [[1511.95,-196.66,-624.93],[0.032971,0.999448,0.003972,-0.00071],[0,-1,-1,0],[0,9E9,9E9,9E9,9E9,9E9]],Work,z10,custom_tool1\WObj:=WObj0;
MoveL [[1502.17,-198.78,-624.92],[0.032971,0.999448,0.003972,-0.00071],[0,-1,-1,0],[0,9E9,9E9,9E9,9E9,9E9]],Work,z10,custom_tool1\WObj:=WObj0;
MoveL [[1501.91,-202.93,-624.92],[0.032971,0.999448,0.003972,-0.00071],[0,-1,-1,0],[0,9E9,9E9,9E9,9E9,9E9]],Work,z10,custom_tool1\WObj:=WObj0;
MoveL [[1511.68,-200.81,-624.94],[0.032971,0.999448,0.003972,-0.00071],[0,-1,-1,0],[0,9E9,9E9,9E9,9E9,9E9]],Work,z10,custom_tool1\WObj:=WObj0;
MoveL [[1521.46,-198.69,-624.96],[0.032971,0.999448,0.003972,-0.00071],[0,-1,-1,0],[0,9E9,9E9,9E9,9E9,9E9]],Work,z10,custom_tool1\WObj:=WObj0;
MoveL [[1531.23,-196.56,-624.97],[0.032971,0.999448,0.003972,-0.00071],[0,-1,-1,0],[0,9E9,9E9,9E9,9E9,9E9]],Work,z10,custom_tool1\WObj:=WObj0;
MoveL [[1541,-194.44,-624.99],[0.032971,0.999448,0.003972,-0.00071],[0,-1,-1,0],[0,9E9,9E9,9E9,9E9,9E9]],Work,z10,custom_tool1\WObj:=WObj0;
MoveL [[1550.77,-192.32,-625.01],[0.032971,0.999448,0.003972,-0.00071],[0,-1,-1,0],[0,9E9,9E9,9E9,9E9,9E9]],Work,z10,custom_tool1\WObj:=WObj0;
MoveL [[1560.54,-190.2,-625.02],[0.032971,0.999448,0.003972,-0.00071],[0,-1,-1,0],[0,9E9,9E9,9E9,9E9,9E9]],Work,z10,custom_tool1\WObj:=WObj0;
MoveL [[1570.32,-188.07,-625.04],[0.032971,0.999448,0.003972,-0.00071],[0,-1,-1,0],[0,9E9,9E9,9E9,9E9,9E9]],Work,z10,custom_tool1\WObj:=WObj0;
MoveL [[1580.09,-185.95,-625.06],[0.032971,0.999448,0.003972,-0.00071],[0,-1,-1,0],[0,9E9,9E9,9E9,9E9,9E9]],Work,z10,custom_tool1\WObj:=WObj0;
MoveL [[1589.86,-183.83,-625.07],[0.032971,0.999448,0.003972,-0.00071],[0,-1,-1,0],[0,9E9,9E9,9E9,9E9,9E9]],Work,z10,custom_tool1\WObj:=WObj0;
MoveL [[1599.63,-181.71,-625.09],[0.032971,0.999448,0.003972,-0.00071],[0,-1,-1,0],[0,9E9,9E9,9E9,9E9,9E9]],Work,z10,custom_tool1\WObj:=WObj0;
MoveL [[1609.41,-179.58,-625.11],[0.032971,0.999448,0.003972,-0.00071],[0,-1,-1,0],[0,9E9,9E9,9E9,9E9,9E9]],Work,z10,custom_tool1\WObj:=WObj0;
MoveL [[1619.18,-177.46,-625.12],[0.032971,0.999448,0.003972,-0.00071],[0,-1,-1,0],[0,9E9,9E9,9E9,9E9,9E9]],Work,z10,custom_tool1\WObj:=WObj0;
MoveL [[1619.57,-181.47,-625.13],[0.032971,0.999448,0.003972,-0.00071],[0,-1,-1,0],[0,9E9,9E9,9E9,9E9,9E9]],Work,z10,custom_tool1\WObj:=WObj0;
MoveL [[1609.8,-183.59,-625.11],[0.032971,0.999448,0.003972,-0.00071],[0,-1,-1,0],[0,9E9,9E9,9E9,9E9,9E9]],Work,z10,custom_tool1\WObj:=WObj0;
MoveL [[1600.03,-185.71,-625.1],[0.032971,0.999448,0.003972,-0.00071],[0,-1,-1,0],[0,9E9,9E9,9E9,9E9,9E9]],Work,z10,custom_tool1\WObj:=WObj0;
MoveL [[1590.26,-187.84,-625.08],[0.032971,0.999448,0.003972,-0.00071],[0,-1,-1,0],[0,9E9,9E9,9E9,9E9,9E9]],Work,z10,custom_tool1\WObj:=WObj0;
MoveL [[1580.49,-189.96,-625.06],[0.032971,0.999448,0.003972,-0.00071],[0,-1,-1,0],[0,9E9,9E9,9E9,9E9,9E9]],Work,z10,custom_tool1\WObj:=WObj0;
MoveL [[1570.71,-192.08,-625.05],[0.032971,0.999448,0.003972,-0.00071],[0,-1,-1,0],[0,9E9,9E9,9E9,9E9,9E9]],Work,z10,custom_tool1\WObj:=WObj0;
MoveL [[1560.94,-194.2,-625.03],[0.032971,0.999448,0.003972,-0.00071],[0,-1,-1,0],[0,9E9,9E9,9E9,9E9,9E9]],Work,z10,custom_tool1\WObj:=WObj0;
MoveL [[1551.17,-196.33,-625.01],[0.032971,0.999448,0.003972,-0.00071],[0,-1,-1,0],[0,9E9,9E9,9E9,9E9,9E9]],Work,z10,custom_tool1\WObj:=WObj0;
MoveL [[1541.4,-198.45,-625],[0.032971,0.999448,0.003972,-0.00071],[0,-1,-1,0],[0,9E9,9E9,9E9,9E9,9E9]],Work,z10,custom_tool1\WObj:=WObj0;
MoveL [[1531.62,-200.57,-624.98],[0.032971,0.999448,0.003972,-0.00071],[0,-1,-1,0],[0,9E9,9E9,9E9,9E9,9E9]],Work,z10,custom_tool1\WObj:=WObj0;
MoveL [[1521.85,-202.69,-624.96],[0.032971,0.999448,0.003972,-0.00071],[0,-1,-1,0],[0,9E9,9E9,9E9,9E9,9E9]],Work,z10,custom_tool1\WObj:=WObj0;
MoveL [[1512.08,-204.82,-624.95],[0.032971,0.999448,0.003972,-0.00071],[0,-1,-1,0],[0,9E9,9E9,9E9,9E9,9E9]],Work,z10,custom_tool1\WObj:=WObj0;
MoveL [[1502.31,-206.94,-624.93],[0.032971,0.999448,0.003972,-0.00071],[0,-1,-1,0],[0,9E9,9E9,9E9,9E9,9E9]],Work,z10,custom_tool1\WObj:=WObj0;
MoveL [[1502.05,-211.09,-624.93],[0.032971,0.999448,0.003972,-0.00071],[0,-1,-1,0],[0,9E9,9E9,9E9,9E9,9E9]],Work,z10,custom_tool1\WObj:=WObj0;
MoveL [[1511.82,-208.97,-624.95],[0.032971,0.999448,0.003972,-0.00071],[0,-1,-1,0],[0,9E9,9E9,9E9,9E9,9E9]],Work,z10,custom_tool1\WObj:=WObj0;
MoveL [[1521.59,-206.84,-624.97],[0.032971,0.999448,0.003972,-0.00071],[0,-1,-1,0],[0,9E9,9E9,9E9,9E9,9E9]],Work,z10,custom_tool1\WObj:=WObj0;
MoveL [[1531.36,-204.72,-624.98],[0.032971,0.999448,0.003972,-0.00071],[0,-1,-1,0],[0,9E9,9E9,9E9,9E9,9E9]],Work,z10,custom_tool1\WObj:=WObj0;
MoveL [[1541.13,-202.6,-625],[0.032971,0.999448,0.003972,-0.00071],[0,-1,-1,0],[0,9E9,9E9,9E9,9E9,9E9]],Work,z10,custom_tool1\WObj:=WObj0;
MoveL [[1550.91,-200.48,-625.02],[0.032971,0.999448,0.003972,-0.00071],[0,-1,-1,0],[0,9E9,9E9,9E9,9E9,9E9]],Work,z10,custom_tool1\WObj:=WObj0;
MoveL [[1560.68,-198.35,-625.03],[0.032971,0.999448,0.003972,-0.00071],[0,-1,-1,0],[0,9E9,9E9,9E9,9E9,9E9]],Work,z10,custom_tool1\WObj:=WObj0;
MoveL [[1570.45,-196.23,-625.05],[0.032971,0.999448,0.003972,-0.00071],[0,-1,-1,0],[0,9E9,9E9,9E9,9E9,9E9]],Work,z10,custom_tool1\WObj:=WObj0;
MoveL [[1580.22,-194.11,-625.07],[0.032971,0.999448,0.003972,-0.00071],[0,-1,-1,0],[0,9E9,9E9,9E9,9E9,9E9]],Work,z10,custom_tool1\WObj:=WObj0;
MoveL [[1590,-191.99,-625.08],[0.032971,0.999448,0.003972,-0.00071],[0,-1,-1,0],[0,9E9,9E9,9E9,9E9,9E9]],Work,z10,custom_tool1\WObj:=WObj0;
MoveL [[1599.77,-189.86,-625.1],[0.032971,0.999448,0.003972,-0.00071],[0,-1,-1,0],[0,9E9,9E9,9E9,9E9,9E9]],Work,z10,custom_tool1\WObj:=WObj0;
MoveL [[1609.54,-187.74,-625.12],[0.032971,0.999448,0.003972,-0.00071],[0,-1,-1,0],[0,9E9,9E9,9E9,9E9,9E9]],Work,z10,custom_tool1\WObj:=WObj0;
MoveL [[1619.31,-185.62,-625.13],[0.032971,0.999448,0.003972,-0.00071],[0,-1,-1,0],[0,9E9,9E9,9E9,9E9,9E9]],Work,z10,custom_tool1\WObj:=WObj0;
MoveL [[1619.71,-189.63,-625.14],[0.032971,0.999448,0.003972,-0.00071],[0,-1,-1,0],[0,9E9,9E9,9E9,9E9,9E9]],Work,z10,custom_tool1\WObj:=WObj0;
MoveL [[1609.94,-191.75,-625.12],[0.032971,0.999448,0.003972,-0.00071],[0,-1,-1,0],[0,9E9,9E9,9E9,9E9,9E9]],Work,z10,custom_tool1\WObj:=WObj0;
MoveL [[1600.16,-193.87,-625.11],[0.032971,0.999448,0.003972,-0.00071],[0,-1,-1,0],[0,9E9,9E9,9E9,9E9,9E9]],Work,z10,custom_tool1\WObj:=WObj0;
MoveL [[1590.39,-195.99,-625.09],[0.032971,0.999448,0.003972,-0.00071],[0,-1,-1,0],[0,9E9,9E9,9E9,9E9,9E9]],Work,z10,custom_tool1\WObj:=WObj0;
MoveL [[1580.62,-198.12,-625.07],[0.032971,0.999448,0.003972,-0.00071],[0,-1,-1,0],[0,9E9,9E9,9E9,9E9,9E9]],Work,z10,custom_tool1\WObj:=WObj0;
MoveL [[1570.85,-200.24,-625.06],[0.032971,0.999448,0.003972,-0.00071],[0,-1,-1,0],[0,9E9,9E9,9E9,9E9,9E9]],Work,z10,custom_tool1\WObj:=WObj0;
MoveL [[1561.08,-202.36,-625.04],[0.032971,0.999448,0.003972,-0.00071],[0,-1,-1,0],[0,9E9,9E9,9E9,9E9,9E9]],Work,z10,custom_tool1\WObj:=WObj0;
MoveL [[1551.3,-204.48,-625.02],[0.032971,0.999448,0.003972,-0.00071],[0,-1,-1,0],[0,9E9,9E9,9E9,9E9,9E9]],Work,z10,custom_tool1\WObj:=WObj0;
MoveL [[1541.53,-206.61,-625.01],[0.032971,0.999448,0.003972,-0.00071],[0,-1,-1,0],[0,9E9,9E9,9E9,9E9,9E9]],Work,z10,custom_tool1\WObj:=WObj0;
MoveL [[1531.76,-208.73,-624.99],[0.032971,0.999448,0.003972,-0.00071],[0,-1,-1,0],[0,9E9,9E9,9E9,9E9,9E9]],Work,z10,custom_tool1\WObj:=WObj0;
MoveL [[1521.99,-210.85,-624.97],[0.032971,0.999448,0.003972,-0.00071],[0,-1,-1,0],[0,9E9,9E9,9E9,9E9,9E9]],Work,z10,custom_tool1\WObj:=WObj0;
MoveL [[1512.21,-212.97,-624.96],[0.032971,0.999448,0.003972,-0.00071],[0,-1,-1,0],[0,9E9,9E9,9E9,9E9,9E9]],Work,z10,custom_tool1\WObj:=WObj0;
MoveL [[1502.44,-215.1,-624.94],[0.032971,0.999448,0.003972,-0.00071],[0,-1,-1,0],[0,9E9,9E9,9E9,9E9,9E9]],Work,z10,custom_tool1\WObj:=WObj0;
MoveL [[1502.18,-219.25,-624.95],[0.032971,0.999448,0.003972,-0.00071],[0,-1,-1,0],[0,9E9,9E9,9E9,9E9,9E9]],Work,z10,custom_tool1\WObj:=WObj0;
MoveL [[1511.95,-217.12,-624.96],[0.032971,0.999448,0.003972,-0.00071],[0,-1,-1,0],[0,9E9,9E9,9E9,9E9,9E9]],Work,z10,custom_tool1\WObj:=WObj0;
MoveL [[1521.73,-215,-624.98],[0.032971,0.999448,0.003972,-0.00071],[0,-1,-1,0],[0,9E9,9E9,9E9,9E9,9E9]],Work,z10,custom_tool1\WObj:=WObj0;
MoveL [[1531.5,-212.88,-625],[0.032971,0.999448,0.003972,-0.00071],[0,-1,-1,0],[0,9E9,9E9,9E9,9E9,9E9]],Work,z10,custom_tool1\WObj:=WObj0;
MoveL [[1541.27,-210.76,-625.01],[0.032971,0.999448,0.003972,-0.00071],[0,-1,-1,0],[0,9E9,9E9,9E9,9E9,9E9]],Work,z10,custom_tool1\WObj:=WObj0;
MoveL [[1551.04,-208.63,-625.03],[0.032971,0.999448,0.003972,-0.00071],[0,-1,-1,0],[0,9E9,9E9,9E9,9E9,9E9]],Work,z10,custom_tool1\WObj:=WObj0;
MoveL [[1560.81,-206.51,-625.05],[0.032971,0.999448,0.003972,-0.00071],[0,-1,-1,0],[0,9E9,9E9,9E9,9E9,9E9]],Work,z10,custom_tool1\WObj:=WObj0;
MoveL [[1570.59,-204.39,-625.06],[0.032971,0.999448,0.003972,-0.00071],[0,-1,-1,0],[0,9E9,9E9,9E9,9E9,9E9]],Work,z10,custom_tool1\WObj:=WObj0;
MoveL [[1580.36,-202.27,-625.08],[0.032971,0.999448,0.003972,-0.00071],[0,-1,-1,0],[0,9E9,9E9,9E9,9E9,9E9]],Work,z10,custom_tool1\WObj:=WObj0;
MoveL [[1590.13,-200.14,-625.1],[0.032971,0.999448,0.003972,-0.00071],[0,-1,-1,0],[0,9E9,9E9,9E9,9E9,9E9]],Work,z10,custom_tool1\WObj:=WObj0;
MoveL [[1599.9,-198.02,-625.11],[0.032971,0.999448,0.003972,-0.00071],[0,-1,-1,0],[0,9E9,9E9,9E9,9E9,9E9]],Work,z10,custom_tool1\WObj:=WObj0;
MoveL [[1609.67,-195.9,-625.13],[0.032971,0.999448,0.003972,-0.00071],[0,-1,-1,0],[0,9E9,9E9,9E9,9E9,9E9]],Work,z10,custom_tool1\WObj:=WObj0;
MoveL [[1619.45,-193.78,-625.14],[0.032971,0.999448,0.003972,-0.00071],[0,-1,-1,0],[0,9E9,9E9,9E9,9E9,9E9]],Work,z10,custom_tool1\WObj:=WObj0;
MoveL [[1619.84,-197.78,-625.15],[0.032971,0.999448,0.003972,-0.00071],[0,-1,-1,0],[0,9E9,9E9,9E9,9E9,9E9]],Work,z10,custom_tool1\WObj:=WObj0;
MoveL [[1610.07,-199.91,-625.13],[0.032971,0.999448,0.003972,-0.00071],[0,-1,-1,0],[0,9E9,9E9,9E9,9E9,9E9]],Work,z10,custom_tool1\WObj:=WObj0;
MoveL [[1600.3,-202.03,-625.12],[0.032971,0.999448,0.003972,-0.00071],[0,-1,-1,0],[0,9E9,9E9,9E9,9E9,9E9]],Work,z10,custom_tool1\WObj:=WObj0;
MoveL [[1590.53,-204.15,-625.1],[0.032971,0.999448,0.003972,-0.00071],[0,-1,-1,0],[0,9E9,9E9,9E9,9E9,9E9]],Work,z10,custom_tool1\WObj:=WObj0;
MoveL [[1580.75,-206.27,-625.08],[0.032971,0.999448,0.003972,-0.00071],[0,-1,-1,0],[0,9E9,9E9,9E9,9E9,9E9]],Work,z10,custom_tool1\WObj:=WObj0;
MoveL [[1570.98,-208.4,-625.07],[0.032971,0.999448,0.003972,-0.00071],[0,-1,-1,0],[0,9E9,9E9,9E9,9E9,9E9]],Work,z10,custom_tool1\WObj:=WObj0;
MoveL [[1561.21,-210.52,-625.05],[0.032971,0.999448,0.003972,-0.00071],[0,-1,-1,0],[0,9E9,9E9,9E9,9E9,9E9]],Work,z10,custom_tool1\WObj:=WObj0;
MoveL [[1551.44,-212.64,-625.03],[0.032971,0.999448,0.003972,-0.00071],[0,-1,-1,0],[0,9E9,9E9,9E9,9E9,9E9]],Work,z10,custom_tool1\WObj:=WObj0;
MoveL [[1541.67,-214.76,-625.02],[0.032971,0.999448,0.003972,-0.00071],[0,-1,-1,0],[0,9E9,9E9,9E9,9E9,9E9]],Work,z10,custom_tool1\WObj:=WObj0;
MoveL [[1531.89,-216.89,-625],[0.032971,0.999448,0.003972,-0.00071],[0,-1,-1,0],[0,9E9,9E9,9E9,9E9,9E9]],Work,z10,custom_tool1\WObj:=WObj0;
MoveL [[1522.12,-219.01,-624.99],[0.032971,0.999448,0.003972,-0.00071],[0,-1,-1,0],[0,9E9,9E9,9E9,9E9,9E9]],Work,z10,custom_tool1\WObj:=WObj0;
MoveL [[1512.35,-221.13,-624.97],[0.032971,0.999448,0.003972,-0.00071],[0,-1,-1,0],[0,9E9,9E9,9E9,9E9,9E9]],Work,z10,custom_tool1\WObj:=WObj0;
MoveL [[1502.58,-223.25,-624.95],[0.032971,0.999448,0.003972,-0.00071],[0,-1,-1,0],[0,9E9,9E9,9E9,9E9,9E9]],Work,z10,custom_tool1\WObj:=WObj0;
MoveL [[1502.32,-227.4,-624.96],[0.032971,0.999448,0.003972,-0.00071],[0,-1,-1,0],[0,9E9,9E9,9E9,9E9,9E9]],Work,z10,custom_tool1\WObj:=WObj0;
MoveL [[1512.09,-225.28,-624.97],[0.032971,0.999448,0.003972,-0.00071],[0,-1,-1,0],[0,9E9,9E9,9E9,9E9,9E9]],Work,z10,custom_tool1\WObj:=WObj0;
MoveL [[1521.86,-223.16,-624.99],[0.032971,0.999448,0.003972,-0.00071],[0,-1,-1,0],[0,9E9,9E9,9E9,9E9,9E9]],Work,z10,custom_tool1\WObj:=WObj0;
MoveL [[1531.63,-221.04,-625.01],[0.032971,0.999448,0.003972,-0.00071],[0,-1,-1,0],[0,9E9,9E9,9E9,9E9,9E9]],Work,z10,custom_tool1\WObj:=WObj0;
MoveL [[1541.4,-218.91,-625.02],[0.032971,0.999448,0.003972,-0.00071],[0,-1,-1,0],[0,9E9,9E9,9E9,9E9,9E9]],Work,z10,custom_tool1\WObj:=WObj0;
MoveL [[1551.18,-216.79,-625.04],[0.032971,0.999448,0.003972,-0.00071],[0,-1,-1,0],[0,9E9,9E9,9E9,9E9,9E9]],Work,z10,custom_tool1\WObj:=WObj0;
MoveL [[1560.95,-214.67,-625.06],[0.032971,0.999448,0.003972,-0.00071],[0,-1,-1,0],[0,9E9,9E9,9E9,9E9,9E9]],Work,z10,custom_tool1\WObj:=WObj0;
MoveL [[1570.72,-212.55,-625.07],[0.032971,0.999448,0.003972,-0.00071],[0,-1,-1,0],[0,9E9,9E9,9E9,9E9,9E9]],Work,z10,custom_tool1\WObj:=WObj0;
MoveL [[1580.49,-210.42,-625.09],[0.032971,0.999448,0.003972,-0.00071],[0,-1,-1,0],[0,9E9,9E9,9E9,9E9,9E9]],Work,z10,custom_tool1\WObj:=WObj0;
MoveL [[1590.26,-208.3,-625.11],[0.032971,0.999448,0.003972,-0.00071],[0,-1,-1,0],[0,9E9,9E9,9E9,9E9,9E9]],Work,z10,custom_tool1\WObj:=WObj0;
MoveL [[1600.04,-206.18,-625.12],[0.032971,0.999448,0.003972,-0.00071],[0,-1,-1,0],[0,9E9,9E9,9E9,9E9,9E9]],Work,z10,custom_tool1\WObj:=WObj0;
MoveL [[1609.81,-204.06,-625.14],[0.032971,0.999448,0.003972,-0.00071],[0,-1,-1,0],[0,9E9,9E9,9E9,9E9,9E9]],Work,z10,custom_tool1\WObj:=WObj0;
MoveL [[1619.58,-201.93,-625.16],[0.032971,0.999448,0.003972,-0.00071],[0,-1,-1,0],[0,9E9,9E9,9E9,9E9,9E9]],Work,z10,custom_tool1\WObj:=WObj0;
MoveL [[1619.98,-205.94,-625.16],[0.032971,0.999448,0.003972,-0.00071],[0,-1,-1,0],[0,9E9,9E9,9E9,9E9,9E9]],Work,z10,custom_tool1\WObj:=WObj0;
MoveL [[1610.21,-208.06,-625.15],[0.032971,0.999448,0.003972,-0.00071],[0,-1,-1,0],[0,9E9,9E9,9E9,9E9,9E9]],Work,z10,custom_tool1\WObj:=WObj0;
MoveL [[1600.43,-210.19,-625.13],[0.032971,0.999448,0.003972,-0.00071],[0,-1,-1,0],[0,9E9,9E9,9E9,9E9,9E9]],Work,z10,custom_tool1\WObj:=WObj0;
MoveL [[1590.66,-212.31,-625.11],[0.032971,0.999448,0.003972,-0.00071],[0,-1,-1,0],[0,9E9,9E9,9E9,9E9,9E9]],Work,z10,custom_tool1\WObj:=WObj0;
MoveL [[1580.89,-214.43,-625.1],[0.032971,0.999448,0.003972,-0.00071],[0,-1,-1,0],[0,9E9,9E9,9E9,9E9,9E9]],Work,z10,custom_tool1\WObj:=WObj0;
MoveL [[1571.12,-216.55,-625.08],[0.032971,0.999448,0.003972,-0.00071],[0,-1,-1,0],[0,9E9,9E9,9E9,9E9,9E9]],Work,z10,custom_tool1\WObj:=WObj0;
MoveL [[1561.34,-218.68,-625.06],[0.032971,0.999448,0.003972,-0.00071],[0,-1,-1,0],[0,9E9,9E9,9E9,9E9,9E9]],Work,z10,custom_tool1\WObj:=WObj0;
MoveL [[1551.57,-220.8,-625.05],[0.032971,0.999448,0.003972,-0.00071],[0,-1,-1,0],[0,9E9,9E9,9E9,9E9,9E9]],Work,z10,custom_tool1\WObj:=WObj0;
MoveL [[1541.8,-222.92,-625.03],[0.032971,0.999448,0.003972,-0.00071],[0,-1,-1,0],[0,9E9,9E9,9E9,9E9,9E9]],Work,z10,custom_tool1\WObj:=WObj0;
MoveL [[1532.03,-225.04,-625.01],[0.032971,0.999448,0.003972,-0.00071],[0,-1,-1,0],[0,9E9,9E9,9E9,9E9,9E9]],Work,z10,custom_tool1\WObj:=WObj0;
MoveL [[1522.26,-227.17,-625],[0.032971,0.999448,0.003972,-0.00071],[0,-1,-1,0],[0,9E9,9E9,9E9,9E9,9E9]],Work,z10,custom_tool1\WObj:=WObj0;
MoveL [[1512.48,-229.29,-624.98],[0.032971,0.999448,0.003972,-0.00071],[0,-1,-1,0],[0,9E9,9E9,9E9,9E9,9E9]],Work,z10,custom_tool1\WObj:=WObj0;
MoveL [[1502.71,-231.41,-624.96],[0.032971,0.999448,0.003972,-0.00071],[0,-1,-1,0],[0,9E9,9E9,9E9,9E9,9E9]],Work,z10,custom_tool1\WObj:=WObj0;
MoveL [[1502.45,-235.56,-624.97],[0.032971,0.999448,0.003972,-0.00071],[0,-1,-1,0],[0,9E9,9E9,9E9,9E9,9E9]],Work,z10,custom_tool1\WObj:=WObj0;
MoveL [[1512.22,-233.44,-624.99],[0.032971,0.999448,0.003972,-0.00071],[0,-1,-1,0],[0,9E9,9E9,9E9,9E9,9E9]],Work,z10,custom_tool1\WObj:=WObj0;
MoveL [[1521.99,-231.32,-625],[0.032971,0.999448,0.003972,-0.00071],[0,-1,-1,0],[0,9E9,9E9,9E9,9E9,9E9]],Work,z10,custom_tool1\WObj:=WObj0;
MoveL [[1531.77,-229.19,-625.02],[0.032971,0.999448,0.003972,-0.00071],[0,-1,-1,0],[0,9E9,9E9,9E9,9E9,9E9]],Work,z10,custom_tool1\WObj:=WObj0;
MoveL [[1541.54,-227.07,-625.03],[0.032971,0.999448,0.003972,-0.00071],[0,-1,-1,0],[0,9E9,9E9,9E9,9E9,9E9]],Work,z10,custom_tool1\WObj:=WObj0;
MoveL [[1551.31,-224.95,-625.05],[0.032971,0.999448,0.003972,-0.00071],[0,-1,-1,0],[0,9E9,9E9,9E9,9E9,9E9]],Work,z10,custom_tool1\WObj:=WObj0;
MoveL [[1561.08,-222.83,-625.07],[0.032971,0.999448,0.003972,-0.00071],[0,-1,-1,0],[0,9E9,9E9,9E9,9E9,9E9]],Work,z10,custom_tool1\WObj:=WObj0;
MoveL [[1570.85,-220.7,-625.08],[0.032971,0.999448,0.003972,-0.00071],[0,-1,-1,0],[0,9E9,9E9,9E9,9E9,9E9]],Work,z10,custom_tool1\WObj:=WObj0;
MoveL [[1580.63,-218.58,-625.1],[0.032971,0.999448,0.003972,-0.00071],[0,-1,-1,0],[0,9E9,9E9,9E9,9E9,9E9]],Work,z10,custom_tool1\WObj:=WObj0;
MoveL [[1590.4,-216.46,-625.12],[0.032971,0.999448,0.003972,-0.00071],[0,-1,-1,0],[0,9E9,9E9,9E9,9E9,9E9]],Work,z10,custom_tool1\WObj:=WObj0;
MoveL [[1600.17,-214.34,-625.13],[0.032971,0.999448,0.003972,-0.00071],[0,-1,-1,0],[0,9E9,9E9,9E9,9E9,9E9]],Work,z10,custom_tool1\WObj:=WObj0;
MoveL [[1609.94,-212.21,-625.15],[0.032971,0.999448,0.003972,-0.00071],[0,-1,-1,0],[0,9E9,9E9,9E9,9E9,9E9]],Work,z10,custom_tool1\WObj:=WObj0;
MoveL [[1619.72,-210.09,-625.17],[0.032971,0.999448,0.003972,-0.00071],[0,-1,-1,0],[0,9E9,9E9,9E9,9E9,9E9]],Work,z10,custom_tool1\WObj:=WObj0;
MoveL [[1620.11,-214.1,-625.17],[0.032971,0.999448,0.003972,-0.00071],[0,-1,-1,0],[0,9E9,9E9,9E9,9E9,9E9]],Work,z10,custom_tool1\WObj:=WObj0;
MoveL [[1610.34,-216.22,-625.16],[0.032971,0.999448,0.003972,-0.00071],[0,-1,-1,0],[0,9E9,9E9,9E9,9E9,9E9]],Work,z10,custom_tool1\WObj:=WObj0;
MoveL [[1600.57,-218.34,-625.14],[0.032971,0.999448,0.003972,-0.00071],[0,-1,-1,0],[0,9E9,9E9,9E9,9E9,9E9]],Work,z10,custom_tool1\WObj:=WObj0;
MoveL [[1590.8,-220.47,-625.12],[0.032971,0.999448,0.003972,-0.00071],[0,-1,-1,0],[0,9E9,9E9,9E9,9E9,9E9]],Work,z10,custom_tool1\WObj:=WObj0;
MoveL [[1581.02,-222.59,-625.11],[0.032971,0.999448,0.003972,-0.00071],[0,-1,-1,0],[0,9E9,9E9,9E9,9E9,9E9]],Work,z10,custom_tool1\WObj:=WObj0;
MoveL [[1571.25,-224.71,-625.09],[0.032971,0.999448,0.003972,-0.00071],[0,-1,-1,0],[0,9E9,9E9,9E9,9E9,9E9]],Work,z10,custom_tool1\WObj:=WObj0;
MoveL [[1561.48,-226.83,-625.07],[0.032971,0.999448,0.003972,-0.00071],[0,-1,-1,0],[0,9E9,9E9,9E9,9E9,9E9]],Work,z10,custom_tool1\WObj:=WObj0;
MoveL [[1551.71,-228.96,-625.06],[0.032971,0.999448,0.003972,-0.00071],[0,-1,-1,0],[0,9E9,9E9,9E9,9E9,9E9]],Work,z10,custom_tool1\WObj:=WObj0;
MoveL [[1541.93,-231.08,-625.04],[0.032971,0.999448,0.003972,-0.00071],[0,-1,-1,0],[0,9E9,9E9,9E9,9E9,9E9]],Work,z10,custom_tool1\WObj:=WObj0;
MoveL [[1532.16,-233.2,-625.02],[0.032971,0.999448,0.003972,-0.00071],[0,-1,-1,0],[0,9E9,9E9,9E9,9E9,9E9]],Work,z10,custom_tool1\WObj:=WObj0;
MoveL [[1522.39,-235.32,-625.01],[0.032971,0.999448,0.003972,-0.00071],[0,-1,-1,0],[0,9E9,9E9,9E9,9E9,9E9]],Work,z10,custom_tool1\WObj:=WObj0;
MoveL [[1512.62,-237.45,-624.99],[0.032971,0.999448,0.003972,-0.00071],[0,-1,-1,0],[0,9E9,9E9,9E9,9E9,9E9]],Work,z10,custom_tool1\WObj:=WObj0;
MoveL [[1502.85,-239.57,-624.97],[0.032971,0.999448,0.003972,-0.00071],[0,-1,-1,0],[0,9E9,9E9,9E9,9E9,9E9]],Work,z10,custom_tool1\WObj:=WObj0;
MoveL [[1502.58,-243.72,-624.98],[0.032971,0.999448,0.003972,-0.00071],[0,-1,-1,0],[0,9E9,9E9,9E9,9E9,9E9]],Work,z10,custom_tool1\WObj:=WObj0;
MoveL [[1512.36,-241.6,-625],[0.032971,0.999448,0.003972,-0.00071],[0,-1,-1,0],[0,9E9,9E9,9E9,9E9,9E9]],Work,z10,custom_tool1\WObj:=WObj0;
MoveL [[1522.13,-239.47,-625.01],[0.032971,0.999448,0.003972,-0.00071],[0,-1,-1,0],[0,9E9,9E9,9E9,9E9,9E9]],Work,z10,custom_tool1\WObj:=WObj0;
MoveL [[1531.9,-237.35,-625.03],[0.032971,0.999448,0.003972,-0.00071],[0,-1,-1,0],[0,9E9,9E9,9E9,9E9,9E9]],Work,z10,custom_tool1\WObj:=WObj0;
MoveL [[1541.67,-235.23,-625.05],[0.032971,0.999448,0.003972,-0.00071],[0,-1,-1,0],[0,9E9,9E9,9E9,9E9,9E9]],Work,z10,custom_tool1\WObj:=WObj0;
MoveL [[1551.45,-233.11,-625.06],[0.032971,0.999448,0.003972,-0.00071],[0,-1,-1,0],[0,9E9,9E9,9E9,9E9,9E9]],Work,z10,custom_tool1\WObj:=WObj0;
MoveL [[1561.22,-230.98,-625.08],[0.032971,0.999448,0.003972,-0.00071],[0,-1,-1,0],[0,9E9,9E9,9E9,9E9,9E9]],Work,z10,custom_tool1\WObj:=WObj0;
MoveL [[1570.99,-228.86,-625.1],[0.032971,0.999448,0.003972,-0.00071],[0,-1,-1,0],[0,9E9,9E9,9E9,9E9,9E9]],Work,z10,custom_tool1\WObj:=WObj0;
MoveL [[1580.76,-226.74,-625.11],[0.032971,0.999448,0.003972,-0.00071],[0,-1,-1,0],[0,9E9,9E9,9E9,9E9,9E9]],Work,z10,custom_tool1\WObj:=WObj0;
MoveL [[1590.53,-224.62,-625.13],[0.032971,0.999448,0.003972,-0.00071],[0,-1,-1,0],[0,9E9,9E9,9E9,9E9,9E9]],Work,z10,custom_tool1\WObj:=WObj0;
MoveL [[1600.31,-222.49,-625.15],[0.032971,0.999448,0.003972,-0.00071],[0,-1,-1,0],[0,9E9,9E9,9E9,9E9,9E9]],Work,z10,custom_tool1\WObj:=WObj0;
MoveL [[1610.08,-220.37,-625.16],[0.032971,0.999448,0.003972,-0.00071],[0,-1,-1,0],[0,9E9,9E9,9E9,9E9,9E9]],Work,z10,custom_tool1\WObj:=WObj0;
MoveL [[1619.85,-218.25,-625.18],[0.032971,0.999448,0.003972,-0.00071],[0,-1,-1,0],[0,9E9,9E9,9E9,9E9,9E9]],Work,z10,custom_tool1\WObj:=WObj0;
MoveL [[1620.25,-222.25,-625.19],[0.032971,0.999448,0.003972,-0.00071],[0,-1,-1,0],[0,9E9,9E9,9E9,9E9,9E9]],Work,z10,custom_tool1\WObj:=WObj0;
MoveL [[1610.47,-224.38,-625.17],[0.032971,0.999448,0.003972,-0.00071],[0,-1,-1,0],[0,9E9,9E9,9E9,9E9,9E9]],Work,z10,custom_tool1\WObj:=WObj0;
MoveL [[1600.7,-226.5,-625.15],[0.032971,0.999448,0.003972,-0.00071],[0,-1,-1,0],[0,9E9,9E9,9E9,9E9,9E9]],Work,z10,custom_tool1\WObj:=WObj0;
MoveL [[1590.93,-228.62,-625.14],[0.032971,0.999448,0.003972,-0.00071],[0,-1,-1,0],[0,9E9,9E9,9E9,9E9,9E9]],Work,z10,custom_tool1\WObj:=WObj0;
MoveL [[1581.16,-230.75,-625.12],[0.032971,0.999448,0.003972,-0.00071],[0,-1,-1,0],[0,9E9,9E9,9E9,9E9,9E9]],Work,z10,custom_tool1\WObj:=WObj0;
MoveL [[1571.39,-232.87,-625.1],[0.032971,0.999448,0.003972,-0.00071],[0,-1,-1,0],[0,9E9,9E9,9E9,9E9,9E9]],Work,z10,custom_tool1\WObj:=WObj0;
MoveL [[1561.61,-234.99,-625.09],[0.032971,0.999448,0.003972,-0.00071],[0,-1,-1,0],[0,9E9,9E9,9E9,9E9,9E9]],Work,z10,custom_tool1\WObj:=WObj0;
MoveL [[1551.84,-237.11,-625.07],[0.032971,0.999448,0.003972,-0.00071],[0,-1,-1,0],[0,9E9,9E9,9E9,9E9,9E9]],Work,z10,custom_tool1\WObj:=WObj0;
MoveL [[1542.07,-239.24,-625.05],[0.032971,0.999448,0.003972,-0.00071],[0,-1,-1,0],[0,9E9,9E9,9E9,9E9,9E9]],Work,z10,custom_tool1\WObj:=WObj0;
MoveL [[1532.3,-241.36,-625.04],[0.032971,0.999448,0.003972,-0.00071],[0,-1,-1,0],[0,9E9,9E9,9E9,9E9,9E9]],Work,z10,custom_tool1\WObj:=WObj0;
MoveL [[1522.53,-243.48,-625.02],[0.032971,0.999448,0.003972,-0.00071],[0,-1,-1,0],[0,9E9,9E9,9E9,9E9,9E9]],Work,z10,custom_tool1\WObj:=WObj0;
MoveL [[1512.75,-245.6,-625],[0.032971,0.999448,0.003972,-0.00071],[0,-1,-1,0],[0,9E9,9E9,9E9,9E9,9E9]],Work,z10,custom_tool1\WObj:=WObj0;
MoveL [[1502.98,-247.73,-624.99],[0.032971,0.999448,0.003972,-0.00071],[0,-1,-1,0],[0,9E9,9E9,9E9,9E9,9E9]],Work,z10,custom_tool1\WObj:=WObj0;
MoveL [[1502.72,-251.88,-624.99],[0.032971,0.999448,0.003972,-0.00071],[0,-1,-1,0],[0,9E9,9E9,9E9,9E9,9E9]],Work,z10,custom_tool1\WObj:=WObj0;
MoveL [[1512.49,-249.75,-625.01],[0.032971,0.999448,0.003972,-0.00071],[0,-1,-1,0],[0,9E9,9E9,9E9,9E9,9E9]],Work,z10,custom_tool1\WObj:=WObj0;
MoveL [[1522.26,-247.63,-625.02],[0.032971,0.999448,0.003972,-0.00071],[0,-1,-1,0],[0,9E9,9E9,9E9,9E9,9E9]],Work,z10,custom_tool1\WObj:=WObj0;
MoveL [[1532.04,-245.51,-625.04],[0.032971,0.999448,0.003972,-0.00071],[0,-1,-1,0],[0,9E9,9E9,9E9,9E9,9E9]],Work,z10,custom_tool1\WObj:=WObj0;
MoveL [[1541.81,-243.39,-625.06],[0.032971,0.999448,0.003972,-0.00071],[0,-1,-1,0],[0,9E9,9E9,9E9,9E9,9E9]],Work,z10,custom_tool1\WObj:=WObj0;
MoveL [[1551.58,-241.26,-625.07],[0.032971,0.999448,0.003972,-0.00071],[0,-1,-1,0],[0,9E9,9E9,9E9,9E9,9E9]],Work,z10,custom_tool1\WObj:=WObj0;
MoveL [[1561.35,-239.14,-625.09],[0.032971,0.999448,0.003972,-0.00071],[0,-1,-1,0],[0,9E9,9E9,9E9,9E9,9E9]],Work,z10,custom_tool1\WObj:=WObj0;
MoveL [[1571.12,-237.02,-625.11],[0.032971,0.999448,0.003972,-0.00071],[0,-1,-1,0],[0,9E9,9E9,9E9,9E9,9E9]],Work,z10,custom_tool1\WObj:=WObj0;
MoveL [[1580.9,-234.9,-625.12],[0.032971,0.999448,0.003972,-0.00071],[0,-1,-1,0],[0,9E9,9E9,9E9,9E9,9E9]],Work,z10,custom_tool1\WObj:=WObj0;
MoveL [[1590.67,-232.77,-625.14],[0.032971,0.999448,0.003972,-0.00071],[0,-1,-1,0],[0,9E9,9E9,9E9,9E9,9E9]],Work,z10,custom_tool1\WObj:=WObj0;
MoveL [[1600.44,-230.65,-625.16],[0.032971,0.999448,0.003972,-0.00071],[0,-1,-1,0],[0,9E9,9E9,9E9,9E9,9E9]],Work,z10,custom_tool1\WObj:=WObj0;
MoveL [[1610.21,-228.53,-625.17],[0.032971,0.999448,0.003972,-0.00071],[0,-1,-1,0],[0,9E9,9E9,9E9,9E9,9E9]],Work,z10,custom_tool1\WObj:=WObj0;
MoveL [[1619.98,-226.41,-625.19],[0.032971,0.999448,0.003972,-0.00071],[0,-1,-1,0],[0,9E9,9E9,9E9,9E9,9E9]],Work,z10,custom_tool1\WObj:=WObj0;
MoveL [[1620.38,-230.41,-625.2],[0.032971,0.999448,0.003972,-0.00071],[0,-1,-1,0],[0,9E9,9E9,9E9,9E9,9E9]],Work,z10,custom_tool1\WObj:=WObj0;
MoveL [[1610.61,-232.53,-625.18],[0.032971,0.999448,0.003972,-0.00071],[0,-1,-1,0],[0,9E9,9E9,9E9,9E9,9E9]],Work,z10,custom_tool1\WObj:=WObj0;
MoveL [[1600.84,-234.66,-625.16],[0.032971,0.999448,0.003972,-0.00071],[0,-1,-1,0],[0,9E9,9E9,9E9,9E9,9E9]],Work,z10,custom_tool1\WObj:=WObj0;
MoveL [[1591.06,-236.78,-625.15],[0.032971,0.999448,0.003972,-0.00071],[0,-1,-1,0],[0,9E9,9E9,9E9,9E9,9E9]],Work,z10,custom_tool1\WObj:=WObj0;
MoveL [[1581.29,-238.9,-625.13],[0.032971,0.999448,0.003972,-0.00071],[0,-1,-1,0],[0,9E9,9E9,9E9,9E9,9E9]],Work,z10,custom_tool1\WObj:=WObj0;
MoveL [[1571.52,-241.03,-625.11],[0.032971,0.999448,0.003972,-0.00071],[0,-1,-1,0],[0,9E9,9E9,9E9,9E9,9E9]],Work,z10,custom_tool1\WObj:=WObj0;
MoveL [[1561.75,-243.15,-625.1],[0.032971,0.999448,0.003972,-0.00071],[0,-1,-1,0],[0,9E9,9E9,9E9,9E9,9E9]],Work,z10,custom_tool1\WObj:=WObj0;
MoveL [[1551.98,-245.27,-625.08],[0.032971,0.999448,0.003972,-0.00071],[0,-1,-1,0],[0,9E9,9E9,9E9,9E9,9E9]],Work,z10,custom_tool1\WObj:=WObj0;
MoveL [[1542.2,-247.39,-625.06],[0.032971,0.999448,0.003972,-0.00071],[0,-1,-1,0],[0,9E9,9E9,9E9,9E9,9E9]],Work,z10,custom_tool1\WObj:=WObj0;
MoveL [[1532.43,-249.52,-625.05],[0.032971,0.999448,0.003972,-0.00071],[0,-1,-1,0],[0,9E9,9E9,9E9,9E9,9E9]],Work,z10,custom_tool1\WObj:=WObj0;
MoveL [[1522.66,-251.64,-625.03],[0.032971,0.999448,0.003972,-0.00071],[0,-1,-1,0],[0,9E9,9E9,9E9,9E9,9E9]],Work,z10,custom_tool1\WObj:=WObj0;
MoveL [[1512.89,-253.76,-625.01],[0.032971,0.999448,0.003972,-0.00071],[0,-1,-1,0],[0,9E9,9E9,9E9,9E9,9E9]],Work,z10,custom_tool1\WObj:=WObj0;
MoveL [[1503.12,-255.88,-625],[0.032971,0.999448,0.003972,-0.00071],[0,-1,-1,0],[0,9E9,9E9,9E9,9E9,9E9]],Work,z10,custom_tool1\WObj:=WObj0;
MoveL [[1502.85,-260.03,-625],[0.032971,0.999448,0.003972,-0.00071],[0,-1,-1,0],[0,9E9,9E9,9E9,9E9,9E9]],Work,z10,custom_tool1\WObj:=WObj0;
MoveL [[1512.63,-257.91,-625.02],[0.032971,0.999448,0.003972,-0.00071],[0,-1,-1,0],[0,9E9,9E9,9E9,9E9,9E9]],Work,z10,custom_tool1\WObj:=WObj0;
MoveL [[1522.4,-255.79,-625.04],[0.032971,0.999448,0.003972,-0.00071],[0,-1,-1,0],[0,9E9,9E9,9E9,9E9,9E9]],Work,z10,custom_tool1\WObj:=WObj0;
MoveL [[1532.17,-253.67,-625.05],[0.032971,0.999448,0.003972,-0.00071],[0,-1,-1,0],[0,9E9,9E9,9E9,9E9,9E9]],Work,z10,custom_tool1\WObj:=WObj0;
MoveL [[1541.94,-251.54,-625.07],[0.032971,0.999448,0.003972,-0.00071],[0,-1,-1,0],[0,9E9,9E9,9E9,9E9,9E9]],Work,z10,custom_tool1\WObj:=WObj0;
MoveL [[1551.71,-249.42,-625.09],[0.032971,0.999448,0.003972,-0.00071],[0,-1,-1,0],[0,9E9,9E9,9E9,9E9,9E9]],Work,z10,custom_tool1\WObj:=WObj0;
MoveL [[1561.49,-247.3,-625.1],[0.032971,0.999448,0.003972,-0.00071],[0,-1,-1,0],[0,9E9,9E9,9E9,9E9,9E9]],Work,z10,custom_tool1\WObj:=WObj0;
MoveL [[1571.26,-245.18,-625.12],[0.032971,0.999448,0.003972,-0.00071],[0,-1,-1,0],[0,9E9,9E9,9E9,9E9,9E9]],Work,z10,custom_tool1\WObj:=WObj0;
MoveL [[1581.03,-243.05,-625.14],[0.032971,0.999448,0.003972,-0.00071],[0,-1,-1,0],[0,9E9,9E9,9E9,9E9,9E9]],Work,z10,custom_tool1\WObj:=WObj0;
MoveL [[1590.8,-240.93,-625.15],[0.032971,0.999448,0.003972,-0.00071],[0,-1,-1,0],[0,9E9,9E9,9E9,9E9,9E9]],Work,z10,custom_tool1\WObj:=WObj0;
MoveL [[1600.57,-238.81,-625.17],[0.032971,0.999448,0.003972,-0.00071],[0,-1,-1,0],[0,9E9,9E9,9E9,9E9,9E9]],Work,z10,custom_tool1\WObj:=WObj0;
MoveL [[1610.35,-236.68,-625.19],[0.032971,0.999448,0.003972,-0.00071],[0,-1,-1,0],[0,9E9,9E9,9E9,9E9,9E9]],Work,z10,custom_tool1\WObj:=WObj0;
MoveL [[1620.12,-234.56,-625.2],[0.032971,0.999448,0.003972,-0.00071],[0,-1,-1,0],[0,9E9,9E9,9E9,9E9,9E9]],Work,z10,custom_tool1\WObj:=WObj0;
MoveL [[1620.52,-238.57,-625.21],[0.032971,0.999448,0.003972,-0.00071],[0,-1,-1,0],[0,9E9,9E9,9E9,9E9,9E9]],Work,z10,custom_tool1\WObj:=WObj0;
MoveL [[1610.74,-240.69,-625.19],[0.032971,0.999448,0.003972,-0.00071],[0,-1,-1,0],[0,9E9,9E9,9E9,9E9,9E9]],Work,z10,custom_tool1\WObj:=WObj0;
MoveL [[1600.97,-242.81,-625.17],[0.032971,0.999448,0.003972,-0.00071],[0,-1,-1,0],[0,9E9,9E9,9E9,9E9,9E9]],Work,z10,custom_tool1\WObj:=WObj0;
MoveL [[1591.2,-244.94,-625.16],[0.032971,0.999448,0.003972,-0.00071],[0,-1,-1,0],[0,9E9,9E9,9E9,9E9,9E9]],Work,z10,custom_tool1\WObj:=WObj0;
MoveL [[1581.43,-247.06,-625.14],[0.032971,0.999448,0.003972,-0.00071],[0,-1,-1,0],[0,9E9,9E9,9E9,9E9,9E9]],Work,z10,custom_tool1\WObj:=WObj0;
MoveL [[1571.65,-249.18,-625.12],[0.032971,0.999448,0.003972,-0.00071],[0,-1,-1,0],[0,9E9,9E9,9E9,9E9,9E9]],Work,z10,custom_tool1\WObj:=WObj0;
MoveL [[1561.88,-251.3,-625.11],[0.032971,0.999448,0.003972,-0.00071],[0,-1,-1,0],[0,9E9,9E9,9E9,9E9,9E9]],Work,z10,custom_tool1\WObj:=WObj0;
MoveL [[1552.11,-253.43,-625.09],[0.032971,0.999448,0.003972,-0.00071],[0,-1,-1,0],[0,9E9,9E9,9E9,9E9,9E9]],Work,z10,custom_tool1\WObj:=WObj0;
MoveL [[1542.34,-255.55,-625.08],[0.032971,0.999448,0.003972,-0.00071],[0,-1,-1,0],[0,9E9,9E9,9E9,9E9,9E9]],Work,z10,custom_tool1\WObj:=WObj0;
MoveL [[1532.57,-257.67,-625.06],[0.032971,0.999448,0.003972,-0.00071],[0,-1,-1,0],[0,9E9,9E9,9E9,9E9,9E9]],Work,z10,custom_tool1\WObj:=WObj0;
MoveL [[1522.79,-259.8,-625.04],[0.032971,0.999448,0.003972,-0.00071],[0,-1,-1,0],[0,9E9,9E9,9E9,9E9,9E9]],Work,z10,custom_tool1\WObj:=WObj0;
MoveL [[1513.02,-261.92,-625.03],[0.032971,0.999448,0.003972,-0.00071],[0,-1,-1,0],[0,9E9,9E9,9E9,9E9,9E9]],Work,z10,custom_tool1\WObj:=WObj0;
MoveL [[1503.25,-264.04,-625.01],[0.032971,0.999448,0.003972,-0.00071],[0,-1,-1,0],[0,9E9,9E9,9E9,9E9,9E9]],Work,z10,custom_tool1\WObj:=WObj0;
MoveL [[1502.99,-268.19,-625.01],[0.032971,0.999448,0.003972,-0.00071],[0,-1,-1,0],[0,9E9,9E9,9E9,9E9,9E9]],Work,z10,custom_tool1\WObj:=WObj0;
MoveL [[1512.76,-266.07,-625.03],[0.032971,0.999448,0.003972,-0.00071],[0,-1,-1,0],[0,9E9,9E9,9E9,9E9,9E9]],Work,z10,custom_tool1\WObj:=WObj0;
MoveL [[1522.53,-263.95,-625.05],[0.032971,0.999448,0.003972,-0.00071],[0,-1,-1,0],[0,9E9,9E9,9E9,9E9,9E9]],Work,z10,custom_tool1\WObj:=WObj0;
MoveL [[1532.3,-261.82,-625.06],[0.032971,0.999448,0.003972,-0.00071],[0,-1,-1,0],[0,9E9,9E9,9E9,9E9,9E9]],Work,z10,custom_tool1\WObj:=WObj0;
MoveL [[1542.08,-259.7,-625.08],[0.032971,0.999448,0.003972,-0.00071],[0,-1,-1,0],[0,9E9,9E9,9E9,9E9,9E9]],Work,z10,custom_tool1\WObj:=WObj0;
MoveL [[1551.85,-257.58,-625.1],[0.032971,0.999448,0.003972,-0.00071],[0,-1,-1,0],[0,9E9,9E9,9E9,9E9,9E9]],Work,z10,custom_tool1\WObj:=WObj0;
MoveL [[1561.62,-255.46,-625.11],[0.032971,0.999448,0.003972,-0.00071],[0,-1,-1,0],[0,9E9,9E9,9E9,9E9,9E9]],Work,z10,custom_tool1\WObj:=WObj0;
MoveL [[1571.39,-253.33,-625.13],[0.032971,0.999448,0.003972,-0.00071],[0,-1,-1,0],[0,9E9,9E9,9E9,9E9,9E9]],Work,z10,custom_tool1\WObj:=WObj0;
MoveL [[1581.16,-251.21,-625.15],[0.032971,0.999448,0.003972,-0.00071],[0,-1,-1,0],[0,9E9,9E9,9E9,9E9,9E9]],Work,z10,custom_tool1\WObj:=WObj0;
MoveL [[1590.94,-249.09,-625.16],[0.032971,0.999448,0.003972,-0.00071],[0,-1,-1,0],[0,9E9,9E9,9E9,9E9,9E9]],Work,z10,custom_tool1\WObj:=WObj0;
MoveL [[1600.71,-246.96,-625.18],[0.032971,0.999448,0.003972,-0.00071],[0,-1,-1,0],[0,9E9,9E9,9E9,9E9,9E9]],Work,z10,custom_tool1\WObj:=WObj0;
MoveL [[1610.48,-244.84,-625.2],[0.032971,0.999448,0.003972,-0.00071],[0,-1,-1,0],[0,9E9,9E9,9E9,9E9,9E9]],Work,z10,custom_tool1\WObj:=WObj0;
MoveL [[1620.25,-242.72,-625.21],[0.032971,0.999448,0.003972,-0.00071],[0,-1,-1,0],[0,9E9,9E9,9E9,9E9,9E9]],Work,z10,custom_tool1\WObj:=WObj0;
MoveL [[1620.65,-246.73,-625.22],[0.032971,0.999448,0.003972,-0.00071],[0,-1,-1,0],[0,9E9,9E9,9E9,9E9,9E9]],Work,z10,custom_tool1\WObj:=WObj0;
MoveL [[1610.88,-248.85,-625.2],[0.032971,0.999448,0.003972,-0.00071],[0,-1,-1,0],[0,9E9,9E9,9E9,9E9,9E9]],Work,z10,custom_tool1\WObj:=WObj0;
MoveL [[1601.11,-250.97,-625.19],[0.032971,0.999448,0.003972,-0.00071],[0,-1,-1,0],[0,9E9,9E9,9E9,9E9,9E9]],Work,z10,custom_tool1\WObj:=WObj0;
MoveL [[1591.33,-253.09,-625.17],[0.032971,0.999448,0.003972,-0.00071],[0,-1,-1,0],[0,9E9,9E9,9E9,9E9,9E9]],Work,z10,custom_tool1\WObj:=WObj0;
MoveL [[1581.56,-255.22,-625.15],[0.032971,0.999448,0.003972,-0.00071],[0,-1,-1,0],[0,9E9,9E9,9E9,9E9,9E9]],Work,z10,custom_tool1\WObj:=WObj0;
MoveL [[1571.79,-257.34,-625.14],[0.032971,0.999448,0.003972,-0.00071],[0,-1,-1,0],[0,9E9,9E9,9E9,9E9,9E9]],Work,z10,custom_tool1\WObj:=WObj0;
MoveL [[1562.02,-259.46,-625.12],[0.032971,0.999448,0.003972,-0.00071],[0,-1,-1,0],[0,9E9,9E9,9E9,9E9,9E9]],Work,z10,custom_tool1\WObj:=WObj0;
MoveL [[1552.24,-261.58,-625.1],[0.032971,0.999448,0.003972,-0.00071],[0,-1,-1,0],[0,9E9,9E9,9E9,9E9,9E9]],Work,z10,custom_tool1\WObj:=WObj0;
MoveL [[1542.47,-263.71,-625.09],[0.032971,0.999448,0.003972,-0.00071],[0,-1,-1,0],[0,9E9,9E9,9E9,9E9,9E9]],Work,z10,custom_tool1\WObj:=WObj0;
MoveL [[1532.7,-265.83,-625.07],[0.032971,0.999448,0.003972,-0.00071],[0,-1,-1,0],[0,9E9,9E9,9E9,9E9,9E9]],Work,z10,custom_tool1\WObj:=WObj0;
MoveL [[1522.93,-267.95,-625.05],[0.032971,0.999448,0.003972,-0.00071],[0,-1,-1,0],[0,9E9,9E9,9E9,9E9,9E9]],Work,z10,custom_tool1\WObj:=WObj0;
MoveL [[1513.16,-270.08,-625.04],[0.032971,0.999448,0.003972,-0.00071],[0,-1,-1,0],[0,9E9,9E9,9E9,9E9,9E9]],Work,z10,custom_tool1\WObj:=WObj0;
MoveL [[1503.38,-272.2,-625.02],[0.032971,0.999448,0.003972,-0.00071],[0,-1,-1,0],[0,9E9,9E9,9E9,9E9,9E9]],Work,z10,custom_tool1\WObj:=WObj0;
MoveL [[1503.12,-276.35,-625.03],[0.032971,0.999448,0.003972,-0.00071],[0,-1,-1,0],[0,9E9,9E9,9E9,9E9,9E9]],Work,z10,custom_tool1\WObj:=WObj0;
MoveL [[1512.89,-274.23,-625.04],[0.032971,0.999448,0.003972,-0.00071],[0,-1,-1,0],[0,9E9,9E9,9E9,9E9,9E9]],Work,z10,custom_tool1\WObj:=WObj0;
MoveL [[1522.67,-272.1,-625.06],[0.032971,0.999448,0.003972,-0.00071],[0,-1,-1,0],[0,9E9,9E9,9E9,9E9,9E9]],Work,z10,custom_tool1\WObj:=WObj0;
MoveL [[1532.44,-269.98,-625.08],[0.032971,0.999448,0.003972,-0.00071],[0,-1,-1,0],[0,9E9,9E9,9E9,9E9,9E9]],Work,z10,custom_tool1\WObj:=WObj0;
MoveL [[1542.21,-267.86,-625.09],[0.032971,0.999448,0.003972,-0.00071],[0,-1,-1,0],[0,9E9,9E9,9E9,9E9,9E9]],Work,z10,custom_tool1\WObj:=WObj0;
MoveL [[1551.98,-265.73,-625.11],[0.032971,0.999448,0.003972,-0.00071],[0,-1,-1,0],[0,9E9,9E9,9E9,9E9,9E9]],Work,z10,custom_tool1\WObj:=WObj0;
MoveL [[1561.76,-263.61,-625.12],[0.032971,0.999448,0.003972,-0.00071],[0,-1,-1,0],[0,9E9,9E9,9E9,9E9,9E9]],Work,z10,custom_tool1\WObj:=WObj0;
MoveL [[1571.53,-261.49,-625.14],[0.032971,0.999448,0.003972,-0.00071],[0,-1,-1,0],[0,9E9,9E9,9E9,9E9,9E9]],Work,z10,custom_tool1\WObj:=WObj0;
MoveL [[1581.3,-259.37,-625.16],[0.032971,0.999448,0.003972,-0.00071],[0,-1,-1,0],[0,9E9,9E9,9E9,9E9,9E9]],Work,z10,custom_tool1\WObj:=WObj0;
MoveL [[1591.07,-257.24,-625.17],[0.032971,0.999448,0.003972,-0.00071],[0,-1,-1,0],[0,9E9,9E9,9E9,9E9,9E9]],Work,z10,custom_tool1\WObj:=WObj0;
MoveL [[1600.84,-255.12,-625.19],[0.032971,0.999448,0.003972,-0.00071],[0,-1,-1,0],[0,9E9,9E9,9E9,9E9,9E9]],Work,z10,custom_tool1\WObj:=WObj0;
MoveL [[1610.62,-253,-625.21],[0.032971,0.999448,0.003972,-0.00071],[0,-1,-1,0],[0,9E9,9E9,9E9,9E9,9E9]],Work,z10,custom_tool1\WObj:=WObj0;
MoveL [[1620.39,-250.88,-625.22],[0.032971,0.999448,0.003972,-0.00071],[0,-1,-1,0],[0,9E9,9E9,9E9,9E9,9E9]],Work,z10,custom_tool1\WObj:=WObj0;
MoveL [[1620.78,-254.88,-625.23],[0.032971,0.999448,0.003972,-0.00071],[0,-1,-1,0],[0,9E9,9E9,9E9,9E9,9E9]],Work,z10,custom_tool1\WObj:=WObj0;
MoveL [[1611.01,-257.01,-625.21],[0.032971,0.999448,0.003972,-0.00071],[0,-1,-1,0],[0,9E9,9E9,9E9,9E9,9E9]],Work,z10,custom_tool1\WObj:=WObj0;
MoveL [[1601.24,-259.13,-625.2],[0.032971,0.999448,0.003972,-0.00071],[0,-1,-1,0],[0,9E9,9E9,9E9,9E9,9E9]],Work,z10,custom_tool1\WObj:=WObj0;
MoveL [[1591.47,-261.25,-625.18],[0.032971,0.999448,0.003972,-0.00071],[0,-1,-1,0],[0,9E9,9E9,9E9,9E9,9E9]],Work,z10,custom_tool1\WObj:=WObj0;
MoveL [[1581.7,-263.37,-625.16],[0.032971,0.999448,0.003972,-0.00071],[0,-1,-1,0],[0,9E9,9E9,9E9,9E9,9E9]],Work,z10,custom_tool1\WObj:=WObj0;
MoveL [[1571.92,-265.5,-625.15],[0.032971,0.999448,0.003972,-0.00071],[0,-1,-1,0],[0,9E9,9E9,9E9,9E9,9E9]],Work,z10,custom_tool1\WObj:=WObj0;
MoveL [[1562.15,-267.62,-625.13],[0.032971,0.999448,0.003972,-0.00071],[0,-1,-1,0],[0,9E9,9E9,9E9,9E9,9E9]],Work,z10,custom_tool1\WObj:=WObj0;
MoveL [[1552.38,-269.74,-625.11],[0.032971,0.999448,0.003972,-0.00071],[0,-1,-1,0],[0,9E9,9E9,9E9,9E9,9E9]],Work,z10,custom_tool1\WObj:=WObj0;
MoveL [[1542.61,-271.86,-625.1],[0.032971,0.999448,0.003972,-0.00071],[0,-1,-1,0],[0,9E9,9E9,9E9,9E9,9E9]],Work,z10,custom_tool1\WObj:=WObj0;
MoveL [[1532.84,-273.99,-625.08],[0.032971,0.999448,0.003972,-0.00071],[0,-1,-1,0],[0,9E9,9E9,9E9,9E9,9E9]],Work,z10,custom_tool1\WObj:=WObj0;
MoveL [[1523.06,-276.11,-625.06],[0.032971,0.999448,0.003972,-0.00071],[0,-1,-1,0],[0,9E9,9E9,9E9,9E9,9E9]],Work,z10,custom_tool1\WObj:=WObj0;
MoveL [[1513.29,-278.23,-625.05],[0.032971,0.999448,0.003972,-0.00071],[0,-1,-1,0],[0,9E9,9E9,9E9,9E9,9E9]],Work,z10,custom_tool1\WObj:=WObj0;
MoveL [[1503.52,-280.35,-625.03],[0.032971,0.999448,0.003972,-0.00071],[0,-1,-1,0],[0,9E9,9E9,9E9,9E9,9E9]],Work,z10,custom_tool1\WObj:=WObj0;
MoveL [[1503.26,-284.51,-625.04],[0.032971,0.999448,0.003972,-0.00071],[0,-1,-1,0],[0,9E9,9E9,9E9,9E9,9E9]],Work,z10,custom_tool1\WObj:=WObj0;
MoveL [[1513.03,-282.38,-625.05],[0.032971,0.999448,0.003972,-0.00071],[0,-1,-1,0],[0,9E9,9E9,9E9,9E9,9E9]],Work,z10,custom_tool1\WObj:=WObj0;
MoveL [[1522.8,-280.26,-625.07],[0.032971,0.999448,0.003972,-0.00071],[0,-1,-1,0],[0,9E9,9E9,9E9,9E9,9E9]],Work,z10,custom_tool1\WObj:=WObj0;
MoveL [[1532.57,-278.14,-625.09],[0.032971,0.999448,0.003972,-0.00071],[0,-1,-1,0],[0,9E9,9E9,9E9,9E9,9E9]],Work,z10,custom_tool1\WObj:=WObj0;
MoveL [[1542.35,-276.01,-625.1],[0.032971,0.999448,0.003972,-0.00071],[0,-1,-1,0],[0,9E9,9E9,9E9,9E9,9E9]],Work,z10,custom_tool1\WObj:=WObj0;
MoveL [[1552.12,-273.89,-625.12],[0.032971,0.999448,0.003972,-0.00071],[0,-1,-1,0],[0,9E9,9E9,9E9,9E9,9E9]],Work,z10,custom_tool1\WObj:=WObj0;
MoveL [[1561.89,-271.77,-625.14],[0.032971,0.999448,0.003972,-0.00071],[0,-1,-1,0],[0,9E9,9E9,9E9,9E9,9E9]],Work,z10,custom_tool1\WObj:=WObj0;
MoveL [[1571.66,-269.65,-625.15],[0.032971,0.999448,0.003972,-0.00071],[0,-1,-1,0],[0,9E9,9E9,9E9,9E9,9E9]],Work,z10,custom_tool1\WObj:=WObj0;
MoveL [[1581.43,-267.52,-625.17],[0.032971,0.999448,0.003972,-0.00071],[0,-1,-1,0],[0,9E9,9E9,9E9,9E9,9E9]],Work,z10,custom_tool1\WObj:=WObj0;
MoveL [[1591.21,-265.4,-625.19],[0.032971,0.999448,0.003972,-0.00071],[0,-1,-1,0],[0,9E9,9E9,9E9,9E9,9E9]],Work,z10,custom_tool1\WObj:=WObj0;
MoveL [[1600.98,-263.28,-625.2],[0.032971,0.999448,0.003972,-0.00071],[0,-1,-1,0],[0,9E9,9E9,9E9,9E9,9E9]],Work,z10,custom_tool1\WObj:=WObj0;
MoveL [[1610.75,-261.16,-625.22],[0.032971,0.999448,0.003972,-0.00071],[0,-1,-1,0],[0,9E9,9E9,9E9,9E9,9E9]],Work,z10,custom_tool1\WObj:=WObj0;
MoveL [[1620.52,-259.03,-625.24],[0.032971,0.999448,0.003972,-0.00071],[0,-1,-1,0],[0,9E9,9E9,9E9,9E9,9E9]],Work,z10,custom_tool1\WObj:=WObj0;
MoveL [[1620.92,-263.04,-625.24],[0.032971,0.999448,0.003972,-0.00071],[0,-1,-1,0],[0,9E9,9E9,9E9,9E9,9E9]],Work,z10,custom_tool1\WObj:=WObj0;
MoveL [[1611.15,-265.16,-625.23],[0.032971,0.999448,0.003972,-0.00071],[0,-1,-1,0],[0,9E9,9E9,9E9,9E9,9E9]],Work,z10,custom_tool1\WObj:=WObj0;
MoveL [[1601.37,-267.29,-625.21],[0.032971,0.999448,0.003972,-0.00071],[0,-1,-1,0],[0,9E9,9E9,9E9,9E9,9E9]],Work,z10,custom_tool1\WObj:=WObj0;
MoveL [[1591.6,-269.41,-625.19],[0.032971,0.999448,0.003972,-0.00071],[0,-1,-1,0],[0,9E9,9E9,9E9,9E9,9E9]],Work,z10,custom_tool1\WObj:=WObj0;
MoveL [[1581.83,-271.53,-625.18],[0.032971,0.999448,0.003972,-0.00071],[0,-1,-1,0],[0,9E9,9E9,9E9,9E9,9E9]],Work,z10,custom_tool1\WObj:=WObj0;
MoveL [[1572.06,-273.65,-625.16],[0.032971,0.999448,0.003972,-0.00071],[0,-1,-1,0],[0,9E9,9E9,9E9,9E9,9E9]],Work,z10,custom_tool1\WObj:=WObj0;
MoveL [[1562.29,-275.78,-625.14],[0.032971,0.999448,0.003972,-0.00071],[0,-1,-1,0],[0,9E9,9E9,9E9,9E9,9E9]],Work,z10,custom_tool1\WObj:=WObj0;
MoveL [[1552.51,-277.9,-625.13],[0.032971,0.999448,0.003972,-0.00071],[0,-1,-1,0],[0,9E9,9E9,9E9,9E9,9E9]],Work,z10,custom_tool1\WObj:=WObj0;
MoveL [[1542.74,-280.02,-625.11],[0.032971,0.999448,0.003972,-0.00071],[0,-1,-1,0],[0,9E9,9E9,9E9,9E9,9E9]],Work,z10,custom_tool1\WObj:=WObj0;
MoveL [[1532.97,-282.14,-625.09],[0.032971,0.999448,0.003972,-0.00071],[0,-1,-1,0],[0,9E9,9E9,9E9,9E9,9E9]],Work,z10,custom_tool1\WObj:=WObj0;
MoveL [[1523.2,-284.27,-625.08],[0.032971,0.999448,0.003972,-0.00071],[0,-1,-1,0],[0,9E9,9E9,9E9,9E9,9E9]],Work,z10,custom_tool1\WObj:=WObj0;
MoveL [[1513.43,-286.39,-625.06],[0.032971,0.999448,0.003972,-0.00071],[0,-1,-1,0],[0,9E9,9E9,9E9,9E9,9E9]],Work,z10,custom_tool1\WObj:=WObj0;
MoveL [[1503.65,-288.51,-625.04],[0.032971,0.999448,0.003972,-0.00071],[0,-1,-1,0],[0,9E9,9E9,9E9,9E9,9E9]],Work,z10,custom_tool1\WObj:=WObj0;
MoveL [[1503.39,-292.66,-625.05],[0.032971,0.999448,0.003972,-0.00071],[0,-1,-1,0],[0,9E9,9E9,9E9,9E9,9E9]],Work,z10,custom_tool1\WObj:=WObj0;
MoveL [[1513.16,-290.54,-625.06],[0.032971,0.999448,0.003972,-0.00071],[0,-1,-1,0],[0,9E9,9E9,9E9,9E9,9E9]],Work,z10,custom_tool1\WObj:=WObj0;
MoveL [[1522.94,-288.42,-625.08],[0.032971,0.999448,0.003972,-0.00071],[0,-1,-1,0],[0,9E9,9E9,9E9,9E9,9E9]],Work,z10,custom_tool1\WObj:=WObj0;
MoveL [[1532.71,-286.29,-625.1],[0.032971,0.999448,0.003972,-0.00071],[0,-1,-1,0],[0,9E9,9E9,9E9,9E9,9E9]],Work,z10,custom_tool1\WObj:=WObj0;
MoveL [[1542.48,-284.17,-625.11],[0.032971,0.999448,0.003972,-0.00071],[0,-1,-1,0],[0,9E9,9E9,9E9,9E9,9E9]],Work,z10,custom_tool1\WObj:=WObj0;
MoveL [[1552.25,-282.05,-625.13],[0.032971,0.999448,0.003972,-0.00071],[0,-1,-1,0],[0,9E9,9E9,9E9,9E9,9E9]],Work,z10,custom_tool1\WObj:=WObj0;
MoveL [[1562.02,-279.93,-625.15],[0.032971,0.999448,0.003972,-0.00071],[0,-1,-1,0],[0,9E9,9E9,9E9,9E9,9E9]],Work,z10,custom_tool1\WObj:=WObj0;
MoveL [[1571.8,-277.8,-625.16],[0.032971,0.999448,0.003972,-0.00071],[0,-1,-1,0],[0,9E9,9E9,9E9,9E9,9E9]],Work,z10,custom_tool1\WObj:=WObj0;
MoveL [[1581.57,-275.68,-625.18],[0.032971,0.999448,0.003972,-0.00071],[0,-1,-1,0],[0,9E9,9E9,9E9,9E9,9E9]],Work,z10,custom_tool1\WObj:=WObj0;
MoveL [[1591.34,-273.56,-625.2],[0.032971,0.999448,0.003972,-0.00071],[0,-1,-1,0],[0,9E9,9E9,9E9,9E9,9E9]],Work,z10,custom_tool1\WObj:=WObj0;
MoveL [[1601.11,-271.44,-625.21],[0.032971,0.999448,0.003972,-0.00071],[0,-1,-1,0],[0,9E9,9E9,9E9,9E9,9E9]],Work,z10,custom_tool1\WObj:=WObj0;
MoveL [[1610.88,-269.31,-625.23],[0.032971,0.999448,0.003972,-0.00071],[0,-1,-1,0],[0,9E9,9E9,9E9,9E9,9E9]],Work,z10,custom_tool1\WObj:=WObj0;
MoveL [[1620.66,-267.19,-625.25],[0.032971,0.999448,0.003972,-0.00071],[0,-1,-1,0],[0,9E9,9E9,9E9,9E9,9E9]],Work,z10,custom_tool1\WObj:=WObj0;
MoveL [[1621.05,-271.2,-625.25],[0.032971,0.999448,0.003972,-0.00071],[0,-1,-1,0],[0,9E9,9E9,9E9,9E9,9E9]],Work,z10,custom_tool1\WObj:=WObj0;
MoveL [[1611.28,-273.32,-625.24],[0.032971,0.999448,0.003972,-0.00071],[0,-1,-1,0],[0,9E9,9E9,9E9,9E9,9E9]],Work,z10,custom_tool1\WObj:=WObj0;
MoveL [[1601.51,-275.44,-625.22],[0.032971,0.999448,0.003972,-0.00071],[0,-1,-1,0],[0,9E9,9E9,9E9,9E9,9E9]],Work,z10,custom_tool1\WObj:=WObj0;
MoveL [[1591.74,-277.57,-625.2],[0.032971,0.999448,0.003972,-0.00071],[0,-1,-1,0],[0,9E9,9E9,9E9,9E9,9E9]],Work,z10,custom_tool1\WObj:=WObj0;
MoveL [[1581.96,-279.69,-625.19],[0.032971,0.999448,0.003972,-0.00071],[0,-1,-1,0],[0,9E9,9E9,9E9,9E9,9E9]],Work,z10,custom_tool1\WObj:=WObj0;
MoveL [[1572.19,-281.81,-625.17],[0.032971,0.999448,0.003972,-0.00071],[0,-1,-1,0],[0,9E9,9E9,9E9,9E9,9E9]],Work,z10,custom_tool1\WObj:=WObj0;
MoveL [[1562.42,-283.93,-625.15],[0.032971,0.999448,0.003972,-0.00071],[0,-1,-1,0],[0,9E9,9E9,9E9,9E9,9E9]],Work,z10,custom_tool1\WObj:=WObj0;
MoveL [[1552.65,-286.06,-625.14],[0.032971,0.999448,0.003972,-0.00071],[0,-1,-1,0],[0,9E9,9E9,9E9,9E9,9E9]],Work,z10,custom_tool1\WObj:=WObj0;
MoveL [[1542.88,-288.18,-625.12],[0.032971,0.999448,0.003972,-0.00071],[0,-1,-1,0],[0,9E9,9E9,9E9,9E9,9E9]],Work,z10,custom_tool1\WObj:=WObj0;
MoveL [[1533.1,-290.3,-625.1],[0.032971,0.999448,0.003972,-0.00071],[0,-1,-1,0],[0,9E9,9E9,9E9,9E9,9E9]],Work,z10,custom_tool1\WObj:=WObj0;
MoveL [[1523.33,-292.42,-625.09],[0.032971,0.999448,0.003972,-0.00071],[0,-1,-1,0],[0,9E9,9E9,9E9,9E9,9E9]],Work,z10,custom_tool1\WObj:=WObj0;
MoveL [[1513.56,-294.55,-625.07],[0.032971,0.999448,0.003972,-0.00071],[0,-1,-1,0],[0,9E9,9E9,9E9,9E9,9E9]],Work,z10,custom_tool1\WObj:=WObj0;
MoveL [[1503.79,-296.67,-625.05],[0.032971,0.999448,0.003972,-0.00071],[0,-1,-1,0],[0,9E9,9E9,9E9,9E9,9E9]],Work,z10,custom_tool1\WObj:=WObj0;
MoveL [[1503.53,-300.82,-625.06],[0.032971,0.999448,0.003972,-0.00071],[0,-1,-1,0],[0,9E9,9E9,9E9,9E9,9E9]],Work,z10,custom_tool1\WObj:=WObj0;
MoveL [[1513.3,-298.7,-625.08],[0.032971,0.999448,0.003972,-0.00071],[0,-1,-1,0],[0,9E9,9E9,9E9,9E9,9E9]],Work,z10,custom_tool1\WObj:=WObj0;
MoveL [[1523.07,-296.57,-625.09],[0.032971,0.999448,0.003972,-0.00071],[0,-1,-1,0],[0,9E9,9E9,9E9,9E9,9E9]],Work,z10,custom_tool1\WObj:=WObj0;
MoveL [[1532.84,-294.45,-625.11],[0.032971,0.999448,0.003972,-0.00071],[0,-1,-1,0],[0,9E9,9E9,9E9,9E9,9E9]],Work,z10,custom_tool1\WObj:=WObj0;
MoveL [[1542.61,-292.33,-625.13],[0.032971,0.999448,0.003972,-0.00071],[0,-1,-1,0],[0,9E9,9E9,9E9,9E9,9E9]],Work,z10,custom_tool1\WObj:=WObj0;
MoveL [[1552.39,-290.21,-625.14],[0.032971,0.999448,0.003972,-0.00071],[0,-1,-1,0],[0,9E9,9E9,9E9,9E9,9E9]],Work,z10,custom_tool1\WObj:=WObj0;
MoveL [[1562.16,-288.08,-625.16],[0.032971,0.999448,0.003972,-0.00071],[0,-1,-1,0],[0,9E9,9E9,9E9,9E9,9E9]],Work,z10,custom_tool1\WObj:=WObj0;
MoveL [[1571.93,-285.96,-625.18],[0.032971,0.999448,0.003972,-0.00071],[0,-1,-1,0],[0,9E9,9E9,9E9,9E9,9E9]],Work,z10,custom_tool1\WObj:=WObj0;
MoveL [[1581.7,-283.84,-625.19],[0.032971,0.999448,0.003972,-0.00071],[0,-1,-1,0],[0,9E9,9E9,9E9,9E9,9E9]],Work,z10,custom_tool1\WObj:=WObj0;
MoveL [[1591.47,-281.72,-625.21],[0.032971,0.999448,0.003972,-0.00071],[0,-1,-1,0],[0,9E9,9E9,9E9,9E9,9E9]],Work,z10,custom_tool1\WObj:=WObj0;
MoveL [[1601.25,-279.59,-625.23],[0.032971,0.999448,0.003972,-0.00071],[0,-1,-1,0],[0,9E9,9E9,9E9,9E9,9E9]],Work,z10,custom_tool1\WObj:=WObj0;
MoveL [[1611.02,-277.47,-625.24],[0.032971,0.999448,0.003972,-0.00071],[0,-1,-1,0],[0,9E9,9E9,9E9,9E9,9E9]],Work,z10,custom_tool1\WObj:=WObj0;
MoveL [[1620.79,-275.35,-625.26],[0.032971,0.999448,0.003972,-0.00071],[0,-1,-1,0],[0,9E9,9E9,9E9,9E9,9E9]],Work,z10,custom_tool1\WObj:=WObj0;
MoveL [[1621.19,-279.36,-625.26],[0.032971,0.999448,0.003972,-0.00071],[0,-1,-1,0],[0,9E9,9E9,9E9,9E9,9E9]],Work,z10,custom_tool1\WObj:=WObj0;
MoveL [[1611.42,-281.48,-625.25],[0.032971,0.999448,0.003972,-0.00071],[0,-1,-1,0],[0,9E9,9E9,9E9,9E9,9E9]],Work,z10,custom_tool1\WObj:=WObj0;
MoveL [[1601.64,-283.6,-625.23],[0.032971,0.999448,0.003972,-0.00071],[0,-1,-1,0],[0,9E9,9E9,9E9,9E9,9E9]],Work,z10,custom_tool1\WObj:=WObj0;
MoveL [[1591.87,-285.72,-625.21],[0.032971,0.999448,0.003972,-0.00071],[0,-1,-1,0],[0,9E9,9E9,9E9,9E9,9E9]],Work,z10,custom_tool1\WObj:=WObj0;
MoveL [[1582.1,-287.85,-625.2],[0.032971,0.999448,0.003972,-0.00071],[0,-1,-1,0],[0,9E9,9E9,9E9,9E9,9E9]],Work,z10,custom_tool1\WObj:=WObj0;
MoveL [[1572.33,-289.97,-625.18],[0.032971,0.999448,0.003972,-0.00071],[0,-1,-1,0],[0,9E9,9E9,9E9,9E9,9E9]],Work,z10,custom_tool1\WObj:=WObj0;
MoveL [[1562.56,-292.09,-625.17],[0.032971,0.999448,0.003972,-0.00071],[0,-1,-1,0],[0,9E9,9E9,9E9,9E9,9E9]],Work,z10,custom_tool1\WObj:=WObj0;
MoveL [[1552.78,-294.21,-625.15],[0.032971,0.999448,0.003972,-0.00071],[0,-1,-1,0],[0,9E9,9E9,9E9,9E9,9E9]],Work,z10,custom_tool1\WObj:=WObj0;
MoveL [[1543.01,-296.34,-625.13],[0.032971,0.999448,0.003972,-0.00071],[0,-1,-1,0],[0,9E9,9E9,9E9,9E9,9E9]],Work,z10,custom_tool1\WObj:=WObj0;
MoveL [[1533.24,-298.46,-625.12],[0.032971,0.999448,0.003972,-0.00071],[0,-1,-1,0],[0,9E9,9E9,9E9,9E9,9E9]],Work,z10,custom_tool1\WObj:=WObj0;
MoveL [[1523.47,-300.58,-625.1],[0.032971,0.999448,0.003972,-0.00071],[0,-1,-1,0],[0,9E9,9E9,9E9,9E9,9E9]],Work,z10,custom_tool1\WObj:=WObj0;
MoveL [[1513.69,-302.7,-625.08],[0.032971,0.999448,0.003972,-0.00071],[0,-1,-1,0],[0,9E9,9E9,9E9,9E9,9E9]],Work,z10,custom_tool1\WObj:=WObj0;
MoveL [[1503.92,-304.83,-625.07],[0.032971,0.999448,0.003972,-0.00071],[0,-1,-1,0],[0,9E9,9E9,9E9,9E9,9E9]],Work,z10,custom_tool1\WObj:=WObj0;
MoveL [[1503.66,-308.98,-625.07],[0.032971,0.999448,0.003972,-0.00071],[0,-1,-1,0],[0,9E9,9E9,9E9,9E9,9E9]],Work,z10,custom_tool1\WObj:=WObj0;
MoveL [[1513.43,-306.85,-625.09],[0.032971,0.999448,0.003972,-0.00071],[0,-1,-1,0],[0,9E9,9E9,9E9,9E9,9E9]],Work,z10,custom_tool1\WObj:=WObj0;
MoveL [[1523.2,-304.73,-625.1],[0.032971,0.999448,0.003972,-0.00071],[0,-1,-1,0],[0,9E9,9E9,9E9,9E9,9E9]],Work,z10,custom_tool1\WObj:=WObj0;
MoveL [[1532.98,-302.61,-625.12],[0.032971,0.999448,0.003972,-0.00071],[0,-1,-1,0],[0,9E9,9E9,9E9,9E9,9E9]],Work,z10,custom_tool1\WObj:=WObj0;
MoveL [[1542.75,-300.49,-625.14],[0.032971,0.999448,0.003972,-0.00071],[0,-1,-1,0],[0,9E9,9E9,9E9,9E9,9E9]],Work,z10,custom_tool1\WObj:=WObj0;
MoveL [[1552.52,-298.36,-625.15],[0.032971,0.999448,0.003972,-0.00071],[0,-1,-1,0],[0,9E9,9E9,9E9,9E9,9E9]],Work,z10,custom_tool1\WObj:=WObj0;
MoveL [[1562.29,-296.24,-625.17],[0.032971,0.999448,0.003972,-0.00071],[0,-1,-1,0],[0,9E9,9E9,9E9,9E9,9E9]],Work,z10,custom_tool1\WObj:=WObj0;
MoveL [[1572.07,-294.12,-625.19],[0.032971,0.999448,0.003972,-0.00071],[0,-1,-1,0],[0,9E9,9E9,9E9,9E9,9E9]],Work,z10,custom_tool1\WObj:=WObj0;
MoveL [[1581.84,-292,-625.2],[0.032971,0.999448,0.003972,-0.00071],[0,-1,-1,0],[0,9E9,9E9,9E9,9E9,9E9]],Work,z10,custom_tool1\WObj:=WObj0;
MoveL [[1591.61,-289.87,-625.22],[0.032971,0.999448,0.003972,-0.00071],[0,-1,-1,0],[0,9E9,9E9,9E9,9E9,9E9]],Work,z10,custom_tool1\WObj:=WObj0;
MoveL [[1601.38,-287.75,-625.24],[0.032971,0.999448,0.003972,-0.00071],[0,-1,-1,0],[0,9E9,9E9,9E9,9E9,9E9]],Work,z10,custom_tool1\WObj:=WObj0;
MoveL [[1611.15,-285.63,-625.25],[0.032971,0.999448,0.003972,-0.00071],[0,-1,-1,0],[0,9E9,9E9,9E9,9E9,9E9]],Work,z10,custom_tool1\WObj:=WObj0;
MoveL [[1620.93,-283.51,-625.27],[0.032971,0.999448,0.003972,-0.00071],[0,-1,-1,0],[0,9E9,9E9,9E9,9E9,9E9]],Work,z10,custom_tool1\WObj:=WObj0;
MoveL [[1621.32,-287.51,-625.28],[0.032971,0.999448,0.003972,-0.00071],[0,-1,-1,0],[0,9E9,9E9,9E9,9E9,9E9]],Work,z10,custom_tool1\WObj:=WObj0;
MoveL [[1611.55,-289.64,-625.26],[0.032971,0.999448,0.003972,-0.00071],[0,-1,-1,0],[0,9E9,9E9,9E9,9E9,9E9]],Work,z10,custom_tool1\WObj:=WObj0;
MoveL [[1601.78,-291.76,-625.24],[0.032971,0.999448,0.003972,-0.00071],[0,-1,-1,0],[0,9E9,9E9,9E9,9E9,9E9]],Work,z10,custom_tool1\WObj:=WObj0;
MoveL [[1592.01,-293.88,-625.23],[0.032971,0.999448,0.003972,-0.00071],[0,-1,-1,0],[0,9E9,9E9,9E9,9E9,9E9]],Work,z10,custom_tool1\WObj:=WObj0;
MoveL [[1582.23,-296,-625.21],[0.032971,0.999448,0.003972,-0.00071],[0,-1,-1,0],[0,9E9,9E9,9E9,9E9,9E9]],Work,z10,custom_tool1\WObj:=WObj0;
MoveL [[1572.46,-298.13,-625.19],[0.032971,0.999448,0.003972,-0.00071],[0,-1,-1,0],[0,9E9,9E9,9E9,9E9,9E9]],Work,z10,custom_tool1\WObj:=WObj0;
MoveL [[1562.69,-300.25,-625.18],[0.032971,0.999448,0.003972,-0.00071],[0,-1,-1,0],[0,9E9,9E9,9E9,9E9,9E9]],Work,z10,custom_tool1\WObj:=WObj0;
MoveL [[1552.92,-302.37,-625.16],[0.032971,0.999448,0.003972,-0.00071],[0,-1,-1,0],[0,9E9,9E9,9E9,9E9,9E9]],Work,z10,custom_tool1\WObj:=WObj0;
MoveL [[1543.15,-304.49,-625.14],[0.032971,0.999448,0.003972,-0.00071],[0,-1,-1,0],[0,9E9,9E9,9E9,9E9,9E9]],Work,z10,custom_tool1\WObj:=WObj0;
MoveL [[1533.37,-306.62,-625.13],[0.032971,0.999448,0.003972,-0.00071],[0,-1,-1,0],[0,9E9,9E9,9E9,9E9,9E9]],Work,z10,custom_tool1\WObj:=WObj0;
MoveL [[1523.6,-308.74,-625.11],[0.032971,0.999448,0.003972,-0.00071],[0,-1,-1,0],[0,9E9,9E9,9E9,9E9,9E9]],Work,z10,custom_tool1\WObj:=WObj0;
MoveL [[1513.83,-310.86,-625.09],[0.032971,0.999448,0.003972,-0.00071],[0,-1,-1,0],[0,9E9,9E9,9E9,9E9,9E9]],Work,z10,custom_tool1\WObj:=WObj0;
MoveL [[1504.06,-312.98,-625.08],[0.032971,0.999448,0.003972,-0.00071],[0,-1,-1,0],[0,9E9,9E9,9E9,9E9,9E9]],Work,z10,custom_tool1\WObj:=WObj0;
MoveL [[1503.79,-317.13,-625.08],[0.032971,0.999448,0.003972,-0.00071],[0,-1,-1,0],[0,9E9,9E9,9E9,9E9,9E9]],Work,z10,custom_tool1\WObj:=WObj0;
MoveL [[1513.57,-315.01,-625.1],[0.032971,0.999448,0.003972,-0.00071],[0,-1,-1,0],[0,9E9,9E9,9E9,9E9,9E9]],Work,z10,custom_tool1\WObj:=WObj0;
MoveL [[1523.34,-312.89,-625.12],[0.032971,0.999448,0.003972,-0.00071],[0,-1,-1,0],[0,9E9,9E9,9E9,9E9,9E9]],Work,z10,custom_tool1\WObj:=WObj0;
MoveL [[1533.11,-310.77,-625.13],[0.032971,0.999448,0.003972,-0.00071],[0,-1,-1,0],[0,9E9,9E9,9E9,9E9,9E9]],Work,z10,custom_tool1\WObj:=WObj0;
MoveL [[1542.88,-308.64,-625.15],[0.032971,0.999448,0.003972,-0.00071],[0,-1,-1,0],[0,9E9,9E9,9E9,9E9,9E9]],Work,z10,custom_tool1\WObj:=WObj0;
MoveL [[1552.66,-306.52,-625.16],[0.032971,0.999448,0.003972,-0.00071],[0,-1,-1,0],[0,9E9,9E9,9E9,9E9,9E9]],Work,z10,custom_tool1\WObj:=WObj0;
MoveL [[1562.43,-304.4,-625.18],[0.032971,0.999448,0.003972,-0.00071],[0,-1,-1,0],[0,9E9,9E9,9E9,9E9,9E9]],Work,z10,custom_tool1\WObj:=WObj0;
MoveL [[1572.2,-302.28,-625.2],[0.032971,0.999448,0.003972,-0.00071],[0,-1,-1,0],[0,9E9,9E9,9E9,9E9,9E9]],Work,z10,custom_tool1\WObj:=WObj0;
MoveL [[1581.97,-300.15,-625.21],[0.032971,0.999448,0.003972,-0.00071],[0,-1,-1,0],[0,9E9,9E9,9E9,9E9,9E9]],Work,z10,custom_tool1\WObj:=WObj0;
MoveL [[1591.74,-298.03,-625.23],[0.032971,0.999448,0.003972,-0.00071],[0,-1,-1,0],[0,9E9,9E9,9E9,9E9,9E9]],Work,z10,custom_tool1\WObj:=WObj0;
MoveL [[1601.52,-295.91,-625.25],[0.032971,0.999448,0.003972,-0.00071],[0,-1,-1,0],[0,9E9,9E9,9E9,9E9,9E9]],Work,z10,custom_tool1\WObj:=WObj0;
MoveL [[1611.29,-293.79,-625.26],[0.032971,0.999448,0.003972,-0.00071],[0,-1,-1,0],[0,9E9,9E9,9E9,9E9,9E9]],Work,z10,custom_tool1\WObj:=WObj0;
MoveL [[1621.06,-291.66,-625.28],[0.032971,0.999448,0.003972,-0.00071],[0,-1,-1,0],[0,9E9,9E9,9E9,9E9,9E9]],Work,z10,custom_tool1\WObj:=WObj0;
MoveL [[1621.46,-295.67,-625.29],[0.032971,0.999448,0.003972,-0.00071],[0,-1,-1,0],[0,9E9,9E9,9E9,9E9,9E9]],Work,z10,custom_tool1\WObj:=WObj0;
MoveL [[1611.68,-297.79,-625.27],[0.032971,0.999448,0.003972,-0.00071],[0,-1,-1,0],[0,9E9,9E9,9E9,9E9,9E9]],Work,z10,custom_tool1\WObj:=WObj0;
MoveL [[1601.91,-299.92,-625.25],[0.032971,0.999448,0.003972,-0.00071],[0,-1,-1,0],[0,9E9,9E9,9E9,9E9,9E9]],Work,z10,custom_tool1\WObj:=WObj0;
MoveL [[1592.14,-302.04,-625.24],[0.032971,0.999448,0.003972,-0.00071],[0,-1,-1,0],[0,9E9,9E9,9E9,9E9,9E9]],Work,z10,custom_tool1\WObj:=WObj0;
MoveL [[1582.37,-304.16,-625.22],[0.032971,0.999448,0.003972,-0.00071],[0,-1,-1,0],[0,9E9,9E9,9E9,9E9,9E9]],Work,z10,custom_tool1\WObj:=WObj0;
MoveL [[1572.6,-306.28,-625.2],[0.032971,0.999448,0.003972,-0.00071],[0,-1,-1,0],[0,9E9,9E9,9E9,9E9,9E9]],Work,z10,custom_tool1\WObj:=WObj0;
MoveL [[1562.82,-308.41,-625.19],[0.032971,0.999448,0.003972,-0.00071],[0,-1,-1,0],[0,9E9,9E9,9E9,9E9,9E9]],Work,z10,custom_tool1\WObj:=WObj0;
MoveL [[1553.05,-310.53,-625.17],[0.032971,0.999448,0.003972,-0.00071],[0,-1,-1,0],[0,9E9,9E9,9E9,9E9,9E9]],Work,z10,custom_tool1\WObj:=WObj0;
MoveL [[1543.28,-312.65,-625.15],[0.032971,0.999448,0.003972,-0.00071],[0,-1,-1,0],[0,9E9,9E9,9E9,9E9,9E9]],Work,z10,custom_tool1\WObj:=WObj0;
MoveL [[1533.51,-314.77,-625.14],[0.032971,0.999448,0.003972,-0.00071],[0,-1,-1,0],[0,9E9,9E9,9E9,9E9,9E9]],Work,z10,custom_tool1\WObj:=WObj0;
MoveL [[1523.74,-316.9,-625.12],[0.032971,0.999448,0.003972,-0.00071],[0,-1,-1,0],[0,9E9,9E9,9E9,9E9,9E9]],Work,z10,custom_tool1\WObj:=WObj0;
MoveL [[1513.96,-319.02,-625.1],[0.032971,0.999448,0.003972,-0.00071],[0,-1,-1,0],[0,9E9,9E9,9E9,9E9,9E9]],Work,z10,custom_tool1\WObj:=WObj0;
MoveL [[1504.19,-321.14,-625.09],[0.032971,0.999448,0.003972,-0.00071],[0,-1,-1,0],[0,9E9,9E9,9E9,9E9,9E9]],Work,z10,custom_tool1\WObj:=WObj0;
MoveL [[1503.93,-325.29,-625.09],[0.032971,0.999448,0.003972,-0.00071],[0,-1,-1,0],[0,9E9,9E9,9E9,9E9,9E9]],Work,z10,custom_tool1\WObj:=WObj0;
MoveL [[1513.7,-323.17,-625.11],[0.032971,0.999448,0.003972,-0.00071],[0,-1,-1,0],[0,9E9,9E9,9E9,9E9,9E9]],Work,z10,custom_tool1\WObj:=WObj0;
MoveL [[1523.47,-321.05,-625.13],[0.032971,0.999448,0.003972,-0.00071],[0,-1,-1,0],[0,9E9,9E9,9E9,9E9,9E9]],Work,z10,custom_tool1\WObj:=WObj0;
MoveL [[1533.25,-318.92,-625.14],[0.032971,0.999448,0.003972,-0.00071],[0,-1,-1,0],[0,9E9,9E9,9E9,9E9,9E9]],Work,z10,custom_tool1\WObj:=WObj0;
MoveL [[1543.02,-316.8,-625.16],[0.032971,0.999448,0.003972,-0.00071],[0,-1,-1,0],[0,9E9,9E9,9E9,9E9,9E9]],Work,z10,custom_tool1\WObj:=WObj0;
MoveL [[1552.79,-314.68,-625.18],[0.032971,0.999448,0.003972,-0.00071],[0,-1,-1,0],[0,9E9,9E9,9E9,9E9,9E9]],Work,z10,custom_tool1\WObj:=WObj0;
MoveL [[1562.56,-312.56,-625.19],[0.032971,0.999448,0.003972,-0.00071],[0,-1,-1,0],[0,9E9,9E9,9E9,9E9,9E9]],Work,z10,custom_tool1\WObj:=WObj0;
MoveL [[1572.33,-310.43,-625.21],[0.032971,0.999448,0.003972,-0.00071],[0,-1,-1,0],[0,9E9,9E9,9E9,9E9,9E9]],Work,z10,custom_tool1\WObj:=WObj0;
MoveL [[1582.11,-308.31,-625.23],[0.032971,0.999448,0.003972,-0.00071],[0,-1,-1,0],[0,9E9,9E9,9E9,9E9,9E9]],Work,z10,custom_tool1\WObj:=WObj0;
MoveL [[1591.88,-306.19,-625.24],[0.032971,0.999448,0.003972,-0.00071],[0,-1,-1,0],[0,9E9,9E9,9E9,9E9,9E9]],Work,z10,custom_tool1\WObj:=WObj0;
MoveL [[1601.65,-304.07,-625.26],[0.032971,0.999448,0.003972,-0.00071],[0,-1,-1,0],[0,9E9,9E9,9E9,9E9,9E9]],Work,z10,custom_tool1\WObj:=WObj0;
MoveL [[1611.42,-301.94,-625.28],[0.032971,0.999448,0.003972,-0.00071],[0,-1,-1,0],[0,9E9,9E9,9E9,9E9,9E9]],Work,z10,custom_tool1\WObj:=WObj0;
MoveL [[1621.19,-299.82,-625.29],[0.032971,0.999448,0.003972,-0.00071],[0,-1,-1,0],[0,9E9,9E9,9E9,9E9,9E9]],Work,z10,custom_tool1\WObj:=WObj0;
MoveL [[1621.59,-303.83,-625.3],[0.032971,0.999448,0.003972,-0.00071],[0,-1,-1,0],[0,9E9,9E9,9E9,9E9,9E9]],Work,z10,custom_tool1\WObj:=WObj0;
MoveL [[1611.82,-305.95,-625.28],[0.032971,0.999448,0.003972,-0.00071],[0,-1,-1,0],[0,9E9,9E9,9E9,9E9,9E9]],Work,z10,custom_tool1\WObj:=WObj0;
MoveL [[1602.05,-308.07,-625.27],[0.032971,0.999448,0.003972,-0.00071],[0,-1,-1,0],[0,9E9,9E9,9E9,9E9,9E9]],Work,z10,custom_tool1\WObj:=WObj0;
MoveL [[1592.27,-310.2,-625.25],[0.032971,0.999448,0.003972,-0.00071],[0,-1,-1,0],[0,9E9,9E9,9E9,9E9,9E9]],Work,z10,custom_tool1\WObj:=WObj0;
MoveL [[1582.5,-312.32,-625.23],[0.032971,0.999448,0.003972,-0.00071],[0,-1,-1,0],[0,9E9,9E9,9E9,9E9,9E9]],Work,z10,custom_tool1\WObj:=WObj0;
MoveL [[1572.73,-314.44,-625.22],[0.032971,0.999448,0.003972,-0.00071],[0,-1,-1,0],[0,9E9,9E9,9E9,9E9,9E9]],Work,z10,custom_tool1\WObj:=WObj0;
MoveL [[1562.96,-316.56,-625.2],[0.032971,0.999448,0.003972,-0.00071],[0,-1,-1,0],[0,9E9,9E9,9E9,9E9,9E9]],Work,z10,custom_tool1\WObj:=WObj0;
MoveL [[1553.19,-318.69,-625.18],[0.032971,0.999448,0.003972,-0.00071],[0,-1,-1,0],[0,9E9,9E9,9E9,9E9,9E9]],Work,z10,custom_tool1\WObj:=WObj0;
MoveL [[1543.41,-320.81,-625.17],[0.032971,0.999448,0.003972,-0.00071],[0,-1,-1,0],[0,9E9,9E9,9E9,9E9,9E9]],Work,z10,custom_tool1\WObj:=WObj0;
MoveL [[1533.64,-322.93,-625.15],[0.032971,0.999448,0.003972,-0.00071],[0,-1,-1,0],[0,9E9,9E9,9E9,9E9,9E9]],Work,z10,custom_tool1\WObj:=WObj0;
MoveL [[1523.87,-325.05,-625.13],[0.032971,0.999448,0.003972,-0.00071],[0,-1,-1,0],[0,9E9,9E9,9E9,9E9,9E9]],Work,z10,custom_tool1\WObj:=WObj0;
MoveL [[1514.1,-327.18,-625.12],[0.032971,0.999448,0.003972,-0.00071],[0,-1,-1,0],[0,9E9,9E9,9E9,9E9,9E9]],Work,z10,custom_tool1\WObj:=WObj0;
MoveL [[1504.33,-329.3,-625.1],[0.032971,0.999448,0.003972,-0.00071],[0,-1,-1,0],[0,9E9,9E9,9E9,9E9,9E9]],Work,z10,custom_tool1\WObj:=WObj0;
MoveL [[1504.06,-333.45,-625.1],[0.032971,0.999448,0.003972,-0.00071],[0,-1,-1,0],[0,9E9,9E9,9E9,9E9,9E9]],Work,z10,custom_tool1\WObj:=WObj0;
MoveL [[1513.84,-331.33,-625.12],[0.032971,0.999448,0.003972,-0.00071],[0,-1,-1,0],[0,9E9,9E9,9E9,9E9,9E9]],Work,z10,custom_tool1\WObj:=WObj0;
MoveL [[1523.61,-329.2,-625.14],[0.032971,0.999448,0.003972,-0.00071],[0,-1,-1,0],[0,9E9,9E9,9E9,9E9,9E9]],Work,z10,custom_tool1\WObj:=WObj0;
